!!!!SEGMENT: pl-wtm--r-1564--002_stefani-jozef--stabat-mater-andantino.krn
!!!cenid: 18xx:2883
!!!COM: Stefani, Józef
!!!COM-rismID: pe30024097
!!!CDT: 1800/04/16-1876/03/19
!!!CNT: Polish
!!!OPR: Stabat Mater
!!!OTL: Andantino
!!!OMV: 002
!!!PDT:
!!!AGN: Sacred
!!!SMS-siglum: PL-Wtm
!!!SMS-shelfmark: R 1564
!!!SMS-shelfwork: 001-002 M
!!!SMS-variant:
!!!SMS-altvar:
!!!NIFC-rismSourceID: 1001115293
!!!NIFC-islandoraID: pl-wtm:27085
!!!URL-pdf-islandora: https://repozytorium.nifc.pl/islandora/object/pl-wtm%3A27085/datastream/PDF/view
!!!URL-scan: https://polish.musicsources.pl/pl/lokalizacje/galeria/rekopisy/6365 @EN{Scan on Polish Music Sources Website} @PL{Skany w portalu Dziedzictwo Muzyki Polskiej w otwartym dostępie}
!!!ONB-nifc: UWAGA: części Stabat Mater: 1. Andante, 2. Andantino, 3. Aria (Adagio), 4. Adagio, 5. Aria per il Basso, 6. Adagio, 7. Larghetto, 8. Aria per il Tenore, 9. Duetino (per il Soprano e Alto con Choro), 10. Arietta per il Alto, 11. Andantino (w źródle jako No. 10 ½), 12. Finale (w źródle jako No. 11)
!!!AIN: 1 arpa 3 empty 1 soprn 1 tenor 1 viola 2 violn
!!!key:
**kern	**kern	**dynam	**kern	**dynam	**kern	**kern	**dynam	**kern	**text	**dynam	**kern	**text	**dynam	**kern	**text	**dynam	**kern	**kern	**dynam
*part9	*part8	*part8	*part7	*part7	*part6	*part5	*part5	*part4	*part4	*part4	*part3	*part3	*part3	*part2	*part2	*part2	*part1	*part1	*part1
*staff10	*staff9	*	*staff8	*	*staff7	*staff6	*	*staff5	*staff5	*	*staff4	*staff4	*	*staff3	*staff3	*	*staff2	*staff1	*
*Iempty	*Iempty	*	*Iviola	*	*Ivioln	*Ivioln	*	*Iempty	*	*	*Itenor	*	*	*Isoprn	*	*	*Iarpa	*Iarpa	*
*I"Baſsi	*I"Baſsi	*	*I"Viole	*	*I"Violini	*I"Violini	*	*I"Baſso	*	*	*I"Tenore	*	*	*I"Soprano	*	*	*I"Harpha	*I"Harpha	*
*clefF4	*clefF4	*	*clefC3	*	*clefG2	*clefG2	*	*clefF4	*	*	*clefC4	*	*	*clefG2	*	*	*clefF4	*clefG2	*
*Trd0c0	*Trd0c0	*	*	*	*	*	*	*	*	*	*	*	*	*	*	*	*	*	*
*k[b-e-a-d-]	*k[b-e-a-d-]	*	*k[b-e-a-d-]	*	*k[b-e-a-d-]	*k[b-e-a-d-]	*	*k[b-e-a-d-]	*	*	*k[b-e-a-d-]	*	*	*k[b-e-a-d-]	*	*	*k[b-e-a-d-]	*k[b-e-a-d-]	*
*A-:	*A-:	*	*A-:	*	*A-:	*A-:	*	*A-:	*	*	*A-:	*	*	*A-:	*	*	*A-:	*A-:	*
*M4/2	*M4/2	*	*M4/2	*	*M4/2	*M4/2	*	*M4/2	*	*	*M4/2	*	*	*M4/2	*	*	*M4/2	*M4/2	*
=1	=1	=1	=1	=1	=1	=1	=1	=1	=1	=1	=1	=1	=1	=1	=1	=1	=1	=1	=1
*	*	*	*	*	*	*	*	*	*	*	*^	*	*	*	*	*	*	*	*
*2\right	*2\right	*	*2\right	*	*2\right	*2\right	*	*2\right	*	*	*2\right	*2\right	*	*	*2\right	*	*	*2\right	*2\right	*
!	!	!	!	!	!	!	!	!	!	!	!	!	!	!	!	!	!	!	!LO:TX:a:t=P:problem=all\right&colon; global	!
!	!	!	!	!	!	!	!	!	!	!	!	!	!	!LO:DY:b:rj	!	!	!	!	!LO:TX:i:a:B:t=No 2.\nAndantino.	!
0ryy	0ryy	.	0ryy	.	0ryy	0ryy	.	2AA-/	A-	.	2c/	2A-\	.	p	1r	.	.	4A-: 4E-: 4C: 4AA-:\	4cc: 4a-: 4e-: 4c:/	.
.	.	.	.	.	.	.	.	.	.	.	.	.	.	.	.	.	.	4r	4r	.
.	.	.	.	.	.	.	.	2AA-/	-ve	.	2c/	2A-\	.	.	.	.	.	4A- 4E- 4C 4AA-\	4cc 4a- 4e- 4c/	.
.	.	.	.	.	.	.	.	.	.	.	.	.	.	.	.	.	.	4r	4r	.
.	.	.	.	.	.	.	.	2AA-/	Ma-	.	2c/	2A-\	.	.	1r	.	.	4A- 4E- 4C 4AA-\	4cc 4a- 4e- 4c/	.
.	.	.	.	.	.	.	.	.	.	.	.	.	.	.	.	.	.	4r	4r	.
.	.	.	.	.	.	.	.	2AA-/	-ris	.	2c/	2A-\	.	.	.	.	.	4A- 4E- 4C 4AA-\	4cc 4a- 4e- 4c/	.
.	.	.	.	.	.	.	.	.	.	.	.	.	.	.	.	.	.	4r	4r	.
=2	=2	=2	=2	=2	=2	=2	=2	=2	=2	=2	=2	=2	=2	=2	=2	=2	=2	=2	=2	=2
0ryy	0ryy	.	0ryy	.	0ryy	0ryy	.	1E-	Stel-	.	1B-	1G	.	.	1r	.	.	4E- 4BB- 4GG 4EE-/	4b- 4g 4e- 4B-/	.
.	.	.	.	.	.	.	.	.	.	.	.	.	.	.	.	.	.	4r	4r	.
.	.	.	.	.	.	.	.	.	.	.	.	.	.	.	.	.	.	4e- 4B- 4G 4E-\	4bb- 4gg 4ee- 4b-\	.
.	.	.	.	.	.	.	.	.	.	.	.	.	.	.	.	.	.	4r	4r	.
.	.	.	.	.	.	.	.	1AA-	-la	.	1c	1A-	.	.	1r	.	.	4A- 4E- 4C 4AA-\	4cc 4a- 4e- 4c/	.
.	.	.	.	.	.	.	.	.	.	.	.	.	.	.	.	.	.	4r	4r	.
.	.	.	.	.	.	.	.	.	.	.	.	.	.	.	.	.	.	4a-> 4e-> 4c 4A-\	4ccc 4aa- 4ee- 4cc/	.
.	.	.	.	.	.	.	.	.	.	.	.	.	.	.	.	.	.	4r	4r	.
=3	=3	=3	=3	=3	=3	=3	=3	=3	=3	=3	=3	=3	=3	=3	=3	=3	=3	=3	=3	=3
0ryy	0ryy	.	0ryy	.	0ryy	0ryy	.	2BB-/	De-	.	2e-/	2F\	.	.	1r	.	.	4B- 4BB-\	4ee- 4b- 4f/	.
.	.	.	.	.	.	.	.	.	.	.	.	.	.	.	.	.	.	4r	4r	.
.	.	.	.	.	.	.	.	2BB-/	-i	.	2d-/	2G\	.	.	.	.	.	4B- 4BB-\	4dd- 4b- 4f/	.
.	.	.	.	.	.	.	.	.	.	.	.	.	.	.	.	.	.	4r	4r	.
.	.	.	.	.	.	.	.	2AA-/	Ma-	.	2c/	2A-\	.	.	1r	.	.	4A- 4AA-\	4cc 4a- 4e-/	.
.	.	.	.	.	.	.	.	.	.	.	.	.	.	.	.	.	.	4r	4r	.
.	.	.	.	.	.	.	.	2E-\	-ter	.	2B-/	2G\	.	.	.	.	.	4B- 4G 4E-\	4b- 4g 4e-/	.
.	.	.	.	.	.	.	.	.	.	.	.	.	.	.	.	.	.	4r	4r	.
*	*	*	*	*	*	*	*	*	*	*	*v	*v	*	*	*	*	*	*	*	*
!!LO:LB:g=original
=4	=4	=4	=4	=4	=4	=4	=4	=4	=4	=4	=4	=4	=4	=4	=4	=4	=4	=4	=4
0ryy	0ryy	.	0ryy	.	0ryy	0ryy	.	1AA-	al-	.	1c 1A-	.	.	1r	.	.	4A- 4E- 4C 4AA-\	4cc 4a- 4e-/	.
.	.	.	.	.	.	.	.	.	.	.	.	.	.	.	.	.	4r	4r	.
.	.	.	.	.	.	.	.	.	.	.	.	.	.	.	.	.	4A- 4E- 4C 4AA-\	4ee- 4cc 4a- 4e-/	.
.	.	.	.	.	.	.	.	.	.	.	.	.	.	.	.	.	4r	4r	.
.	.	.	.	.	.	.	.	1AA-	-ma,	.	1c 1A-	.	.	1r	.	.	4A- 4E- 4C 4AA-\	4cc 4a- 4e-/	.
.	.	.	.	.	.	.	.	.	.	.	.	.	.	.	.	.	4r	4r	.
.	.	.	.	.	.	.	.	.	.	.	.	.	.	.	.	.	4A- 4E- 4C 4AA-\	4ee- 4cc 4a- 4e-/	.
.	.	.	.	.	.	.	.	.	.	.	.	.	.	.	.	.	4r	4r	.
=5	=5	=5	=5	=5	=5	=5	=5	=5	=5	=5	=5	=5	=5	=5	=5	=5	=5	=5	=5
*	*	*	*	*	*	*	*	*	*	*	*^	*	*	*	*	*	*	*	*
0ryy	0ryy	.	0ryy	.	0ryy	0ryy	.	2E-\	At-	.	2B-/	2G\	.	.	1r	.	.	4B- 4G 4E-\	4b- 4g 4e-/	.
.	.	.	.	.	.	.	.	.	.	.	.	.	.	.	.	.	.	4r	4r	.
.	.	.	.	.	.	.	.	2E-\	-que	.	2B-/	2G\	.	.	.	.	.	4B- 4G 4E-\	4b- 4g 4e-/	.
.	.	.	.	.	.	.	.	.	.	.	.	.	.	.	.	.	.	4r	4r	.
.	.	.	.	.	.	.	.	2A-\	sem-	.	2c/	2A-\	.	.	1r	.	.	4A- 4E- 4C 4AA-/	4cc 4a- 4e-/	.
.	.	.	.	.	.	.	.	.	.	.	.	.	.	.	.	.	.	4r	4r	.
.	.	.	.	.	.	.	.	2F\	-per	.	2dn/	2A-\	.	.	.	.	.	4F 4Dn 4BB- 4FF/	4ddn 4b- 4a- 4f/	.
.	.	.	.	.	.	.	.	.	.	.	.	.	.	.	.	.	.	4r	4r	.
*	*	*	*	*	*	*	*	*	*	*	*v	*v	*	*	*	*	*	*	*	*
=6	=6	=6	=6	=6	=6	=6	=6	=6	=6	=6	=6	=6	=6	=6	=6	=6	=6	=6	=6
0ryy	0ryy	.	0ryy	.	0ryy	0ryy	.	1E-	vir-	.	1e- 1G	.	.	1r	.	.	4E- 4BB- 4GG 4EE-/	4ee- 4b- 4g 4e-/	.
.	.	.	.	.	.	.	.	.	.	.	.	.	.	.	.	.	4r	4r	.
.	.	.	.	.	.	.	.	.	.	.	.	.	.	.	.	.	4E- 4BB- 4GG 4EE-/	4ee- 4b- 4g 4e-/	.
.	.	.	.	.	.	.	.	.	.	.	.	.	.	.	.	.	4r	4r	.
.	.	.	.	.	.	.	.	1AA-	-go	.	1c 1A-	.	.	1r	.	.	4A- 4E- 4C 4AA-/	4cc 4a- 4e-/	.
.	.	.	.	.	.	.	.	.	.	.	.	.	.	.	.	.	4r	4r	.
.	.	.	.	.	.	.	.	.	.	.	.	.	.	.	.	.	4A- 4E- 4C 4AA-/	4cc 4a- 4e-/	.
.	.	.	.	.	.	.	.	.	.	.	.	.	.	.	.	.	4r	4r	.
=7	=7	=7	=7	=7	=7	=7	=7	=7	=7	=7	=7	=7	=7	=7	=7	=7	=7	=7	=7
*	*	*	*	*	*	*	*	*	*	*	*^	*	*	*	*	*	*	*	*
!	!	!	!	!	!	!	!	!	!	!	!	!	!	!	!	!	!	!	!	!LO:DY:b:rj
0ryy	0ryy	.	0ryy	.	0ryy	0ryy	.	2BB-/	Fe-	.	2B-/	2G\	.	.	1r	.	.	4B- 4G 4E- 4BB-\	4b- 4g 4e-/	f
.	.	.	.	.	.	.	.	.	.	.	.	.	.	.	.	.	.	4r	4r	.
.	.	.	.	.	.	.	.	2BB-/	-lix	.	2e-/	2G\	.	.	.	.	.	4B- 4G 4E- 4BB-\	4ee- 4b- 4g 4e-/	.
.	.	.	.	.	.	.	.	.	.	.	.	.	.	.	.	.	.	4r	4r	.
.	.	.	.	.	.	.	.	2BB-/	cae-	.	2e-/	2F\	.	.	1r	.	.	4B- 4A- 4F 4BB-\	4ee- 4b- 4g/	.
.	.	.	.	.	.	.	.	.	.	.	.	.	.	.	.	.	.	4r	4r	.
.	.	.	.	.	.	.	.	2BB-/	-li	.	2dn/	2F\	.	.	.	.	.	4B- 4A- 4F 4BB-\	4ddn 4b- 4f/	.
.	.	.	.	.	.	.	.	.	.	.	.	.	.	.	.	.	.	4r	4r	.
*	*	*	*	*	*	*	*	*	*	*	*v	*v	*	*	*	*	*	*	*	*
=8	=8	=8	=8	=8	=8	=8	=8	=8	=8	=8	=8	=8	=8	=8	=8	=8	=8	=8	=8
0ryy	0ryy	.	0ryy	.	0ryy	0ryy	.	1E-	por-	.	1e- 1G	.	.	1r	.	.	8E-\L	8e-/L	.
.	.	.	.	.	.	.	.	.	.	.	.	.	.	.	.	.	8G\	8g/	.
.	.	.	.	.	.	.	.	.	.	.	.	.	.	.	.	.	8B-\	8b-/	.
.	.	.	.	.	.	.	.	.	.	.	.	.	.	.	.	.	8e->\J	8ee-/J	.
.	.	.	.	.	.	.	.	.	.	.	.	.	.	.	.	.	8g>\L	8gg/L	.
.	.	.	.	.	.	.	.	.	.	.	.	.	.	.	.	.	8e->\	8ee-/	.
.	.	.	.	.	.	.	.	.	.	.	.	.	.	.	.	.	8B-\	8b-/	.
.	.	.	.	.	.	.	.	.	.	.	.	.	.	.	.	.	8G\J	8g/J	.
.	.	.	.	.	.	.	.	1E-	-ta	.	1e- 1G	.	.	1r	.	.	4E-\	4e-/	.
.	.	.	.	.	.	.	.	.	.	.	.	.	.	.	.	.	4r	4r	.
.	.	.	.	.	.	.	.	.	.	.	.	.	.	.	.	.	4B- 4G 4E-\	4ee- 4b- 4g 4e-/	.
.	.	.	.	.	.	.	.	.	.	.	.	.	.	.	.	.	4r	4r	.
!!LO:PB:g=original
=9||	=9||	=9||	=9||	=9||	=9||	=9||	=9||	=9||	=9||	=9||	=9||	=9||	=9||	=9||	=9||	=9||	=9||	=9||	=9||
*	*^	*	*	*	*	*	*	*	*	*	*^	*	*	*^	*	*	*	*	*
*	*tremolo	*	*	*tremolo	*	*tremolo	*tremolo	*	*	*	*	*	*	*	*	*	*	*	*	*	*	*
!	!	!	!	!	!	!	!	!	!	!	!LO:DY:a:rj	!	!	!	!	!	!	!	!LO:DY:a:rj	!	!	!LO:DY:b:rj
0ryy	32AA-/LLL	4AA-\	.	32e-LLL 32A-\	.	32a-/LLL	32ccLLL 32e-/	.	2AA-/	A-	f	2c/	2A-\	.	.	2cc/	2a-\	.	f	4A- 4E- 4C 4AA-/	4r	f
.	32AA-/	.	.	32e- 32A-\	.	32a-/	32cc 32e-/	.	.	.	.	.	.	.	.	.	.	.	.	.	.	.
.	32AA-/	.	.	32e- 32A-\	.	32a-/	32cc 32e-/	.	.	.	.	.	.	.	.	.	.	.	.	.	.	.
.	32AA-/	.	.	32e- 32A-\	.	32a-/	32cc 32e-/	.	.	.	.	.	.	.	.	.	.	.	.	.	.	.
.	32AA-/	.	.	32e- 32A-\	.	32a-/	32cc 32e-/	.	.	.	.	.	.	.	.	.	.	.	.	.	.	.
.	32AA-/	.	.	32e- 32A-\	.	32a-/	32cc 32e-/	.	.	.	.	.	.	.	.	.	.	.	.	.	.	.
.	32AA-/	.	.	32e- 32A-\	.	32a-/	32cc 32e-/	.	.	.	.	.	.	.	.	.	.	.	.	.	.	.
.	32AA-/	.	.	32e- 32A-\	.	32a-/	32cc 32e-/	.	.	.	.	.	.	.	.	.	.	.	.	.	.	.
.	32AA-/	4rGG	.	32e- 32A-\	.	32a-/	32cc 32e-/	.	.	.	.	.	.	.	.	.	.	.	.	4r	4cc 4a- 4e- 4c/	.
.	32AA-/	.	.	32e- 32A-\	.	32a-/	32cc 32e-/	.	.	.	.	.	.	.	.	.	.	.	.	.	.	.
.	32AA-/	.	.	32e- 32A-\	.	32a-/	32cc 32e-/	.	.	.	.	.	.	.	.	.	.	.	.	.	.	.
.	32AA-/	.	.	32e- 32A-\	.	32a-/	32cc 32e-/	.	.	.	.	.	.	.	.	.	.	.	.	.	.	.
.	32AA-/	.	.	32e- 32A-\	.	32a-/	32cc 32e-/	.	.	.	.	.	.	.	.	.	.	.	.	.	.	.
.	32AA-/	.	.	32e- 32A-\	.	32a-/	32cc 32e-/	.	.	.	.	.	.	.	.	.	.	.	.	.	.	.
.	32AA-/	.	.	32e- 32A-\	.	32a-/	32cc 32e-/	.	.	.	.	.	.	.	.	.	.	.	.	.	.	.
.	32AA-/	.	.	32e- 32A-\	.	32a-/	32cc 32e-/	.	.	.	.	.	.	.	.	.	.	.	.	.	.	.
.	32AA-/	2rGG	.	32e- 32A-\	.	32a-/	32cc 32e-/	.	2AA-/	-ve	.	2c/	2A-\	.	.	2cc/	2a-\	.	.	4A- 4E- 4C 4AA-/	4r	.
.	32AA-/	.	.	32e- 32A-\	.	32a-/	32cc 32e-/	.	.	.	.	.	.	.	.	.	.	.	.	.	.	.
.	32AA-/	.	.	32e- 32A-\	.	32a-/	32cc 32e-/	.	.	.	.	.	.	.	.	.	.	.	.	.	.	.
.	32AA-/	.	.	32e- 32A-\	.	32a-/	32cc 32e-/	.	.	.	.	.	.	.	.	.	.	.	.	.	.	.
.	32AA-/	.	.	32e- 32A-\	.	32a-/	32cc 32e-/	.	.	.	.	.	.	.	.	.	.	.	.	.	.	.
.	32AA-/	.	.	32e- 32A-\	.	32a-/	32cc 32e-/	.	.	.	.	.	.	.	.	.	.	.	.	.	.	.
.	32AA-/	.	.	32e- 32A-\	.	32a-/	32cc 32e-/	.	.	.	.	.	.	.	.	.	.	.	.	.	.	.
.	32AA-/	.	.	32e- 32A-\	.	32a-/	32cc 32e-/	.	.	.	.	.	.	.	.	.	.	.	.	.	.	.
.	32AA-/	.	.	32e- 32A-\	.	32a-/	32cc 32e-/	.	.	.	.	.	.	.	.	.	.	.	.	4r	4cc 4a- 4e- 4c/	.
.	32AA-/	.	.	32e- 32A-\	.	32a-/	32cc 32e-/	.	.	.	.	.	.	.	.	.	.	.	.	.	.	.
.	32AA-/	.	.	32e- 32A-\	.	32a-/	32cc 32e-/	.	.	.	.	.	.	.	.	.	.	.	.	.	.	.
.	32AA-/	.	.	32e- 32A-\	.	32a-/	32cc 32e-/	.	.	.	.	.	.	.	.	.	.	.	.	.	.	.
.	32AA-/	.	.	32e- 32A-\	.	32a-/	32cc 32e-/	.	.	.	.	.	.	.	.	.	.	.	.	.	.	.
.	32AA-/	.	.	32e- 32A-\	.	32a-/	32cc 32e-/	.	.	.	.	.	.	.	.	.	.	.	.	.	.	.
.	32AA-/	.	.	32e- 32A-\	.	32a-/	32cc 32e-/	.	.	.	.	.	.	.	.	.	.	.	.	.	.	.
.	32AA-/JJJ	.	.	32e-JJJ 32A-\	.	32a-/JJJ	32ccJJJ 32e-/	.	.	.	.	.	.	.	.	.	.	.	.	.	.	.
.	32AA-/LLL	4AA-\	.	32e-LLL 32A-\	.	32a-/LLL	32ccLLL 32e-/	.	2AA-/	Ma-	.	2c/	2A-\	.	.	2cc/	2a-\	.	.	4A- 4E- 4C 4AA-/	4r	.
.	32AA-/	.	.	32e- 32A-\	.	32a-/	32cc 32e-/	.	.	.	.	.	.	.	.	.	.	.	.	.	.	.
.	32AA-/	.	.	32e- 32A-\	.	32a-/	32cc 32e-/	.	.	.	.	.	.	.	.	.	.	.	.	.	.	.
.	32AA-/	.	.	32e- 32A-\	.	32a-/	32cc 32e-/	.	.	.	.	.	.	.	.	.	.	.	.	.	.	.
.	32AA-/	.	.	32e- 32A-\	.	32a-/	32cc 32e-/	.	.	.	.	.	.	.	.	.	.	.	.	.	.	.
.	32AA-/	.	.	32e- 32A-\	.	32a-/	32cc 32e-/	.	.	.	.	.	.	.	.	.	.	.	.	.	.	.
.	32AA-/	.	.	32e- 32A-\	.	32a-/	32cc 32e-/	.	.	.	.	.	.	.	.	.	.	.	.	.	.	.
.	32AA-/	.	.	32e- 32A-\	.	32a-/	32cc 32e-/	.	.	.	.	.	.	.	.	.	.	.	.	.	.	.
.	32AA-/	4rGG	.	32e- 32A-\	.	32a-/	32cc 32e-/	.	.	.	.	.	.	.	.	.	.	.	.	4r	4cc 4a- 4e- 4c/	.
.	32AA-/	.	.	32e- 32A-\	.	32a-/	32cc 32e-/	.	.	.	.	.	.	.	.	.	.	.	.	.	.	.
.	32AA-/	.	.	32e- 32A-\	.	32a-/	32cc 32e-/	.	.	.	.	.	.	.	.	.	.	.	.	.	.	.
.	32AA-/	.	.	32e- 32A-\	.	32a-/	32cc 32e-/	.	.	.	.	.	.	.	.	.	.	.	.	.	.	.
.	32AA-/	.	.	32e- 32A-\	.	32a-/	32cc 32e-/	.	.	.	.	.	.	.	.	.	.	.	.	.	.	.
.	32AA-/	.	.	32e- 32A-\	.	32a-/	32cc 32e-/	.	.	.	.	.	.	.	.	.	.	.	.	.	.	.
.	32AA-/	.	.	32e- 32A-\	.	32a-/	32cc 32e-/	.	.	.	.	.	.	.	.	.	.	.	.	.	.	.
.	32AA-/	.	.	32e- 32A-\	.	32a-/	32cc 32e-/	.	.	.	.	.	.	.	.	.	.	.	.	.	.	.
.	32AA-/	2rGG	.	32e- 32A-\	.	32a-/	32cc 32e-/	.	2AA-/	-ris	.	2c/	2A-\	.	.	2cc/	2a-\	.	.	4A- 4E- 4C 4AA-/	4r	.
.	32AA-/	.	.	32e- 32A-\	.	32a-/	32cc 32e-/	.	.	.	.	.	.	.	.	.	.	.	.	.	.	.
.	32AA-/	.	.	32e- 32A-\	.	32a-/	32cc 32e-/	.	.	.	.	.	.	.	.	.	.	.	.	.	.	.
.	32AA-/	.	.	32e- 32A-\	.	32a-/	32cc 32e-/	.	.	.	.	.	.	.	.	.	.	.	.	.	.	.
.	32AA-/	.	.	32e- 32A-\	.	32a-/	32cc 32e-/	.	.	.	.	.	.	.	.	.	.	.	.	.	.	.
.	32AA-/	.	.	32e- 32A-\	.	32a-/	32cc 32e-/	.	.	.	.	.	.	.	.	.	.	.	.	.	.	.
.	32AA-/	.	.	32e- 32A-\	.	32a-/	32cc 32e-/	.	.	.	.	.	.	.	.	.	.	.	.	.	.	.
.	32AA-/	.	.	32e- 32A-\	.	32a-/	32cc 32e-/	.	.	.	.	.	.	.	.	.	.	.	.	.	.	.
.	32AA-/	.	.	32e- 32A-\	.	32a-/	32cc 32e-/	.	.	.	.	.	.	.	.	.	.	.	.	4r	4cc 4a- 4e- 4c/	.
.	32AA-/	.	.	32e- 32A-\	.	32a-/	32cc 32e-/	.	.	.	.	.	.	.	.	.	.	.	.	.	.	.
.	32AA-/	.	.	32e- 32A-\	.	32a-/	32cc 32e-/	.	.	.	.	.	.	.	.	.	.	.	.	.	.	.
.	32AA-/	.	.	32e- 32A-\	.	32a-/	32cc 32e-/	.	.	.	.	.	.	.	.	.	.	.	.	.	.	.
.	32AA-/	.	.	32e- 32A-\	.	32a-/	32cc 32e-/	.	.	.	.	.	.	.	.	.	.	.	.	.	.	.
.	32AA-/	.	.	32e- 32A-\	.	32a-/	32cc 32e-/	.	.	.	.	.	.	.	.	.	.	.	.	.	.	.
.	32AA-/	.	.	32e- 32A-\	.	32a-/	32cc 32e-/	.	.	.	.	.	.	.	.	.	.	.	.	.	.	.
.	32AA-/JJJ	.	.	32e-JJJ 32A-\	.	32a-/JJJ	32ccJJJ 32e-/	.	.	.	.	.	.	.	.	.	.	.	.	.	.	.
*	*	*	*	*	*	*	*	*	*	*	*	*v	*v	*	*	*	*	*	*	*	*	*
*	*	*	*	*	*	*	*	*	*	*	*	*	*	*	*v	*v	*	*	*	*	*
=10	=10	=10	=10	=10	=10	=10	=10	=10	=10	=10	=10	=10	=10	=10	=10	=10	=10	=10	=10	=10
0ryy	32E-/LLL	4E-\	.	32e-LLL 32G/	.	32g/LLL	32b-LLL 32e-/	.	1E-	Stel-	.	1B- 1G	.	.	1b- 1g	.	.	4E- 4BB- 4GG 4EE-/	4r	.
.	32E-/	.	.	32e- 32G/	.	32g/	32b- 32e-/	.	.	.	.	.	.	.	.	.	.	.	.	.
.	32E-/	.	.	32e- 32G/	.	32g/	32b- 32e-/	.	.	.	.	.	.	.	.	.	.	.	.	.
.	32E-/	.	.	32e- 32G/	.	32g/	32b- 32e-/	.	.	.	.	.	.	.	.	.	.	.	.	.
.	32E-/	.	.	32e- 32G/	.	32g/	32b- 32e-/	.	.	.	.	.	.	.	.	.	.	.	.	.
.	32E-/	.	.	32e- 32G/	.	32g/	32b- 32e-/	.	.	.	.	.	.	.	.	.	.	.	.	.
.	32E-/	.	.	32e- 32G/	.	32g/	32b- 32e-/	.	.	.	.	.	.	.	.	.	.	.	.	.
.	32E-/	.	.	32e- 32G/	.	32g/	32b- 32e-/	.	.	.	.	.	.	.	.	.	.	.	.	.
.	32E-/	4rGG	.	32e- 32G/	.	32g/	32b- 32e-/	.	.	.	.	.	.	.	.	.	.	4r	4b- 4g 4e- 4B-/	.
.	32E-/	.	.	32e- 32G/	.	32g/	32b- 32e-/	.	.	.	.	.	.	.	.	.	.	.	.	.
.	32E-/	.	.	32e- 32G/	.	32g/	32b- 32e-/	.	.	.	.	.	.	.	.	.	.	.	.	.
.	32E-/	.	.	32e- 32G/	.	32g/	32b- 32e-/	.	.	.	.	.	.	.	.	.	.	.	.	.
.	32E-/	.	.	32e- 32G/	.	32g/	32b- 32e-/	.	.	.	.	.	.	.	.	.	.	.	.	.
.	32E-/	.	.	32e- 32G/	.	32g/	32b- 32e-/	.	.	.	.	.	.	.	.	.	.	.	.	.
.	32E-/	.	.	32e- 32G/	.	32g/	32b- 32e-/	.	.	.	.	.	.	.	.	.	.	.	.	.
.	32E-/	.	.	32e- 32G/	.	32g/	32b- 32e-/	.	.	.	.	.	.	.	.	.	.	.	.	.
.	32E-/	2rGG	.	32e- 32G/	.	32g/	32b- 32e-/	.	.	.	.	.	.	.	.	.	.	4e- 4B- 4G 4E-\	4r	.
.	32E-/	.	.	32e- 32G/	.	32g/	32b- 32e-/	.	.	.	.	.	.	.	.	.	.	.	.	.
.	32E-/	.	.	32e- 32G/	.	32g/	32b- 32e-/	.	.	.	.	.	.	.	.	.	.	.	.	.
.	32E-/	.	.	32e- 32G/	.	32g/	32b- 32e-/	.	.	.	.	.	.	.	.	.	.	.	.	.
.	32E-/	.	.	32e- 32G/	.	32g/	32b- 32e-/	.	.	.	.	.	.	.	.	.	.	.	.	.
.	32E-/	.	.	32e- 32G/	.	32g/	32b- 32e-/	.	.	.	.	.	.	.	.	.	.	.	.	.
.	32E-/	.	.	32e- 32G/	.	32g/	32b- 32e-/	.	.	.	.	.	.	.	.	.	.	.	.	.
.	32E-/	.	.	32e- 32G/	.	32g/	32b- 32e-/	.	.	.	.	.	.	.	.	.	.	.	.	.
.	32E-/	.	.	32e- 32G/	.	32g/	32b- 32e-/	.	.	.	.	.	.	.	.	.	.	4r	4bb- 4gg 4ee- 4cc\	.
.	32E-/	.	.	32e- 32G/	.	32g/	32b- 32e-/	.	.	.	.	.	.	.	.	.	.	.	.	.
.	32E-/	.	.	32e- 32G/	.	32g/	32b- 32e-/	.	.	.	.	.	.	.	.	.	.	.	.	.
.	32E-/	.	.	32e- 32G/	.	32g/	32b- 32e-/	.	.	.	.	.	.	.	.	.	.	.	.	.
.	32E-/	.	.	32e- 32G/	.	32g/	32b- 32e-/	.	.	.	.	.	.	.	.	.	.	.	.	.
.	32E-/	.	.	32e- 32G/	.	32g/	32b- 32e-/	.	.	.	.	.	.	.	.	.	.	.	.	.
.	32E-/	.	.	32e- 32G/	.	32g/	32b- 32e-/	.	.	.	.	.	.	.	.	.	.	.	.	.
.	32E-/JJJ	.	.	32e-JJJ 32G/	.	32g/JJJ	32b-JJJ 32e-/	.	.	.	.	.	.	.	.	.	.	.	.	.
.	32AA-/LLL	4AA-\	.	32e-LLL 32A-/	.	32a-/LLL	32ccLLL 32e-/	.	1AA-	-la	.	1c 1A-	.	.	1cc 1a-	.	.	4A- 4E- 4C 4AA-\	4r	.
.	32AA-/	.	.	32e- 32A-/	.	32a-/	32cc 32e-/	.	.	.	.	.	.	.	.	.	.	.	.	.
.	32AA-/	.	.	32e- 32A-/	.	32a-/	32cc 32e-/	.	.	.	.	.	.	.	.	.	.	.	.	.
.	32AA-/	.	.	32e- 32A-/	.	32a-/	32cc 32e-/	.	.	.	.	.	.	.	.	.	.	.	.	.
.	32AA-/	.	.	32e- 32A-/	.	32a-/	32cc 32e-/	.	.	.	.	.	.	.	.	.	.	.	.	.
.	32AA-/	.	.	32e- 32A-/	.	32a-/	32cc 32e-/	.	.	.	.	.	.	.	.	.	.	.	.	.
.	32AA-/	.	.	32e- 32A-/	.	32a-/	32cc 32e-/	.	.	.	.	.	.	.	.	.	.	.	.	.
.	32AA-/	.	.	32e- 32A-/	.	32a-/	32cc 32e-/	.	.	.	.	.	.	.	.	.	.	.	.	.
.	32AA-/	4rGG	.	32e- 32A-/	.	32a-/	32cc 32e-/	.	.	.	.	.	.	.	.	.	.	4r	4cc 4a- 4e- 4c/	.
.	32AA-/	.	.	32e- 32A-/	.	32a-/	32cc 32e-/	.	.	.	.	.	.	.	.	.	.	.	.	.
.	32AA-/	.	.	32e- 32A-/	.	32a-/	32cc 32e-/	.	.	.	.	.	.	.	.	.	.	.	.	.
.	32AA-/	.	.	32e- 32A-/	.	32a-/	32cc 32e-/	.	.	.	.	.	.	.	.	.	.	.	.	.
.	32AA-/	.	.	32e- 32A-/	.	32a-/	32cc 32e-/	.	.	.	.	.	.	.	.	.	.	.	.	.
.	32AA-/	.	.	32e- 32A-/	.	32a-/	32cc 32e-/	.	.	.	.	.	.	.	.	.	.	.	.	.
.	32AA-/	.	.	32e- 32A-/	.	32a-/	32cc 32e-/	.	.	.	.	.	.	.	.	.	.	.	.	.
.	32AA-/	.	.	32e- 32A-/	.	32a-/	32cc 32e-/	.	.	.	.	.	.	.	.	.	.	.	.	.
.	32AA-/	2rGG	.	32e- 32A-/	.	32a-/	32cc 32e-/	.	.	.	.	.	.	.	.	.	.	4a-> 4e-> 4c 4A-\	4ree	.
.	32AA-/	.	.	32e- 32A-/	.	32a-/	32cc 32e-/	.	.	.	.	.	.	.	.	.	.	.	.	.
.	32AA-/	.	.	32e- 32A-/	.	32a-/	32cc 32e-/	.	.	.	.	.	.	.	.	.	.	.	.	.
.	32AA-/	.	.	32e- 32A-/	.	32a-/	32cc 32e-/	.	.	.	.	.	.	.	.	.	.	.	.	.
.	32AA-/	.	.	32e- 32A-/	.	32a-/	32cc 32e-/	.	.	.	.	.	.	.	.	.	.	.	.	.
.	32AA-/	.	.	32e- 32A-/	.	32a-/	32cc 32e-/	.	.	.	.	.	.	.	.	.	.	.	.	.
.	32AA-/	.	.	32e- 32A-/	.	32a-/	32cc 32e-/	.	.	.	.	.	.	.	.	.	.	.	.	.
.	32AA-/	.	.	32e- 32A-/	.	32a-/	32cc 32e-/	.	.	.	.	.	.	.	.	.	.	.	.	.
.	32AA-/	.	.	32e- 32A-/	.	32a-/	32cc 32e-/	.	.	.	.	.	.	.	.	.	.	4r	4ccc 4aa- 4ee- 4cc/	.
.	32AA-/	.	.	32e- 32A-/	.	32a-/	32cc 32e-/	.	.	.	.	.	.	.	.	.	.	.	.	.
.	32AA-/	.	.	32e- 32A-/	.	32a-/	32cc 32e-/	.	.	.	.	.	.	.	.	.	.	.	.	.
.	32AA-/	.	.	32e- 32A-/	.	32a-/	32cc 32e-/	.	.	.	.	.	.	.	.	.	.	.	.	.
.	32AA-/	.	.	32e- 32A-/	.	32a-/	32cc 32e-/	.	.	.	.	.	.	.	.	.	.	.	.	.
.	32AA-/	.	.	32e- 32A-/	.	32a-/	32cc 32e-/	.	.	.	.	.	.	.	.	.	.	.	.	.
.	32AA-/	.	.	32e- 32A-/	.	32a-/	32cc 32e-/	.	.	.	.	.	.	.	.	.	.	.	.	.
.	32AA-/JJJ	.	.	32e-JJJ 32A-/	.	32a-/JJJ	32ccJJJ 32e-/	.	.	.	.	.	.	.	.	.	.	.	.	.
=11	=11	=11	=11	=11	=11	=11	=11	=11	=11	=11	=11	=11	=11	=11	=11	=11	=11	=11	=11	=11
*	*	*	*	*	*	*	*	*	*	*	*	*^	*	*	*^	*	*	*	*	*
*	*	*	*	*	*	*	*2\right	*	*	*	*	*	*	*	*	*	*	*	*	*	*	*
0ryy	32BB-/LLL	4BB-\	.	32B-/LLL	.	32f/LLL	32ee-\LLL	.	2BB-/	De-	.	2e-/	2F\	.	.	2ee-/	2f\	.	.	4B- 4BB-\	4r	.
.	32BB-/	.	.	32B-/	.	32f/	32ee-\	.	.	.	.	.	.	.	.	.	.	.	.	.	.	.
.	32BB-/	.	.	32B-/	.	32f/	32ee-\	.	.	.	.	.	.	.	.	.	.	.	.	.	.	.
.	32BB-/	.	.	32B-/	.	32f/	32ee-\	.	.	.	.	.	.	.	.	.	.	.	.	.	.	.
.	32BB-/	.	.	32B-/	.	32f/	32ee-\	.	.	.	.	.	.	.	.	.	.	.	.	.	.	.
.	32BB-/	.	.	32B-/	.	32f/	32ee-\	.	.	.	.	.	.	.	.	.	.	.	.	.	.	.
.	32BB-/	.	.	32B-/	.	32f/	32ee-\	.	.	.	.	.	.	.	.	.	.	.	.	.	.	.
.	32BB-/	.	.	32B-/	.	32f/	32ee-\	.	.	.	.	.	.	.	.	.	.	.	.	.	.	.
.	32BB-/	4rGG	.	32B-/	.	32f/	32ee-\	.	.	.	.	.	.	.	.	.	.	.	.	4r	4ee- 4b- 4f/	.
.	32BB-/	.	.	32B-/	.	32f/	32ee-\	.	.	.	.	.	.	.	.	.	.	.	.	.	.	.
.	32BB-/	.	.	32B-/	.	32f/	32ee-\	.	.	.	.	.	.	.	.	.	.	.	.	.	.	.
.	32BB-/	.	.	32B-/	.	32f/	32ee-\	.	.	.	.	.	.	.	.	.	.	.	.	.	.	.
.	32BB-/	.	.	32B-/	.	32f/	32ee-\	.	.	.	.	.	.	.	.	.	.	.	.	.	.	.
.	32BB-/	.	.	32B-/	.	32f/	32ee-\	.	.	.	.	.	.	.	.	.	.	.	.	.	.	.
.	32BB-/	.	.	32B-/	.	32f/	32ee-\	.	.	.	.	.	.	.	.	.	.	.	.	.	.	.
.	32BB-/	.	.	32B-/JJJ	.	32f/JJJ	32ee-\JJJ	.	.	.	.	.	.	.	.	.	.	.	.	.	.	.
.	32BB-/	2rGG	.	32B-/LLL	.	32g/LLL	32dd-\LLL	.	2BB-/	-i	.	2d-/	2G\	.	.	2dd-/	2g\	.	.	4B- 4BB-\	4r	.
.	32BB-/	.	.	32B-/	.	32g/	32dd-\	.	.	.	.	.	.	.	.	.	.	.	.	.	.	.
.	32BB-/	.	.	32B-/	.	32g/	32dd-\	.	.	.	.	.	.	.	.	.	.	.	.	.	.	.
.	32BB-/	.	.	32B-/	.	32g/	32dd-\	.	.	.	.	.	.	.	.	.	.	.	.	.	.	.
.	32BB-/	.	.	32B-/	.	32g/	32dd-\	.	.	.	.	.	.	.	.	.	.	.	.	.	.	.
.	32BB-/	.	.	32B-/	.	32g/	32dd-\	.	.	.	.	.	.	.	.	.	.	.	.	.	.	.
.	32BB-/	.	.	32B-/	.	32g/	32dd-\	.	.	.	.	.	.	.	.	.	.	.	.	.	.	.
.	32BB-/	.	.	32B-/	.	32g/	32dd-\	.	.	.	.	.	.	.	.	.	.	.	.	.	.	.
.	32BB-/	.	.	32B-/	.	32g/	32dd-\	.	.	.	.	.	.	.	.	.	.	.	.	4r	4dd- 4g 4e-/	.
.	32BB-/	.	.	32B-/	.	32g/	32dd-\	.	.	.	.	.	.	.	.	.	.	.	.	.	.	.
.	32BB-/	.	.	32B-/	.	32g/	32dd-\	.	.	.	.	.	.	.	.	.	.	.	.	.	.	.
.	32BB-/	.	.	32B-/	.	32g/	32dd-\	.	.	.	.	.	.	.	.	.	.	.	.	.	.	.
.	32BB-/	.	.	32B-/	.	32g/	32dd-\	.	.	.	.	.	.	.	.	.	.	.	.	.	.	.
.	32BB-/	.	.	32B-/	.	32g/	32dd-\	.	.	.	.	.	.	.	.	.	.	.	.	.	.	.
.	32BB-/	.	.	32B-/	.	32g/	32dd-\	.	.	.	.	.	.	.	.	.	.	.	.	.	.	.
.	32BB-/JJJ	.	.	32B-/JJJ	.	32g/JJJ	32dd-\JJJ	.	.	.	.	.	.	.	.	.	.	.	.	.	.	.
.	32AA-/LLL	4AA-\	.	32A-/LLL	.	32a-/LLL	32cc\LLL	.	2AA-/	Ma-	.	2c/	2A-\	.	.	2cc/	2a-\	.	.	4A- 4AA-\	4r	.
.	32AA-/	.	.	32A-/	.	32a-/	32cc\	.	.	.	.	.	.	.	.	.	.	.	.	.	.	.
.	32AA-/	.	.	32A-/	.	32a-/	32cc\	.	.	.	.	.	.	.	.	.	.	.	.	.	.	.
.	32AA-/	.	.	32A-/	.	32a-/	32cc\	.	.	.	.	.	.	.	.	.	.	.	.	.	.	.
.	32AA-/	.	.	32A-/	.	32a-/	32cc\	.	.	.	.	.	.	.	.	.	.	.	.	.	.	.
.	32AA-/	.	.	32A-/	.	32a-/	32cc\	.	.	.	.	.	.	.	.	.	.	.	.	.	.	.
.	32AA-/	.	.	32A-/	.	32a-/	32cc\	.	.	.	.	.	.	.	.	.	.	.	.	.	.	.
.	32AA-/	.	.	32A-/	.	32a-/	32cc\	.	.	.	.	.	.	.	.	.	.	.	.	.	.	.
.	32AA-/	4rGG	.	32A-/	.	32a-/	32cc\	.	.	.	.	.	.	.	.	.	.	.	.	4r	4cc 4a- 4f/	.
.	32AA-/	.	.	32A-/	.	32a-/	32cc\	.	.	.	.	.	.	.	.	.	.	.	.	.	.	.
.	32AA-/	.	.	32A-/	.	32a-/	32cc\	.	.	.	.	.	.	.	.	.	.	.	.	.	.	.
.	32AA-/	.	.	32A-/	.	32a-/	32cc\	.	.	.	.	.	.	.	.	.	.	.	.	.	.	.
.	32AA-/	.	.	32A-/	.	32a-/	32cc\	.	.	.	.	.	.	.	.	.	.	.	.	.	.	.
.	32AA-/	.	.	32A-/	.	32a-/	32cc\	.	.	.	.	.	.	.	.	.	.	.	.	.	.	.
.	32AA-/	.	.	32A-/	.	32a-/	32cc\	.	.	.	.	.	.	.	.	.	.	.	.	.	.	.
.	32AA-/JJJ	.	.	32A-/JJJ	.	32a-/JJJ	32cc\JJJ	.	.	.	.	.	.	.	.	.	.	.	.	.	.	.
*	*	*	*	*2\right	*	*	*	*	*	*	*	*	*	*	*	*	*	*	*	*	*	*
.	32E-/LLL	4E-\	.	32e-\LLL	.	32g/LLL	32b-\LLL	.	2E-\	-ter	.	2B-/	2G\	.	.	2b-/	2g\	.	.	4B- 4G 4E-\	4r	.
.	32E-/	.	.	32e-\	.	32g/	32b-\	.	.	.	.	.	.	.	.	.	.	.	.	.	.	.
.	32E-/	.	.	32e-\	.	32g/	32b-\	.	.	.	.	.	.	.	.	.	.	.	.	.	.	.
.	32E-/	.	.	32e-\	.	32g/	32b-\	.	.	.	.	.	.	.	.	.	.	.	.	.	.	.
.	32E-/	.	.	32e-\	.	32g/	32b-\	.	.	.	.	.	.	.	.	.	.	.	.	.	.	.
.	32E-/	.	.	32e-\	.	32g/	32b-\	.	.	.	.	.	.	.	.	.	.	.	.	.	.	.
.	32E-/	.	.	32e-\	.	32g/	32b-\	.	.	.	.	.	.	.	.	.	.	.	.	.	.	.
.	32E-/	.	.	32e-\	.	32g/	32b-\	.	.	.	.	.	.	.	.	.	.	.	.	.	.	.
.	32E-/	4rGG	.	32e-\	.	32g/	32b-\	.	.	.	.	.	.	.	.	.	.	.	.	4r	4b- 4g 4e-/	.
.	32E-/	.	.	32e-\	.	32g/	32b-\	.	.	.	.	.	.	.	.	.	.	.	.	.	.	.
.	32E-/	.	.	32e-\	.	32g/	32b-\	.	.	.	.	.	.	.	.	.	.	.	.	.	.	.
.	32E-/	.	.	32e-\	.	32g/	32b-\	.	.	.	.	.	.	.	.	.	.	.	.	.	.	.
.	32E-/	.	.	32e-\	.	32g/	32b-\	.	.	.	.	.	.	.	.	.	.	.	.	.	.	.
.	32E-/	.	.	32e-\	.	32g/	32b-\	.	.	.	.	.	.	.	.	.	.	.	.	.	.	.
.	32E-/	.	.	32e-\	.	32g/	32b-\	.	.	.	.	.	.	.	.	.	.	.	.	.	.	.
.	32E-/JJJ	.	.	32e-\JJJ	.	32g/JJJ	32b-\JJJ	.	.	.	.	.	.	.	.	.	.	.	.	.	.	.
*	*	*	*	*	*	*	*	*	*	*	*	*v	*v	*	*	*	*	*	*	*	*	*
*	*	*	*	*	*	*	*	*	*	*	*	*	*	*	*v	*v	*	*	*	*	*
=12	=12	=12	=12	=12	=12	=12	=12	=12	=12	=12	=12	=12	=12	=12	=12	=12	=12	=12	=12	=12
0ryy	32GG/LLL	4AA-\	.	32e-LLL 32A-\	.	32a-/LLL	32cc\LLL	.	1AA-	al-	.	1c 1A-	.	.	1cc 1a-	.	.	4A- 4E- 4C 4AA-\	4r	.
.	32GG/	.	.	32e- 32A-\	.	32a-/	32cc\	.	.	.	.	.	.	.	.	.	.	.	.	.
.	32GG/	.	.	32e- 32A-\	.	32a-/	32cc\	.	.	.	.	.	.	.	.	.	.	.	.	.
.	32GG/	.	.	32e- 32A-\	.	32a-/	32cc\	.	.	.	.	.	.	.	.	.	.	.	.	.
.	32GG/	.	.	32e- 32A-\	.	32a-/	32cc\	.	.	.	.	.	.	.	.	.	.	.	.	.
.	32GG/	.	.	32e- 32A-\	.	32a-/	32cc\	.	.	.	.	.	.	.	.	.	.	.	.	.
.	32GG/	.	.	32e- 32A-\	.	32a-/	32cc\	.	.	.	.	.	.	.	.	.	.	.	.	.
.	32GG/	.	.	32e- 32A-\	.	32a-/	32cc\	.	.	.	.	.	.	.	.	.	.	.	.	.
.	32GG/	4rGG	.	32e- 32A-\	.	32a-/	32cc\	.	.	.	.	.	.	.	.	.	.	4r	4cc 4a- 4e-/	.
.	32GG/	.	.	32e- 32A-\	.	32a-/	32cc\	.	.	.	.	.	.	.	.	.	.	.	.	.
.	32GG/	.	.	32e- 32A-\	.	32a-/	32cc\	.	.	.	.	.	.	.	.	.	.	.	.	.
.	32GG/	.	.	32e- 32A-\	.	32a-/	32cc\	.	.	.	.	.	.	.	.	.	.	.	.	.
.	32GG/	.	.	32e- 32A-\	.	32a-/	32cc\	.	.	.	.	.	.	.	.	.	.	.	.	.
.	32GG/	.	.	32e- 32A-\	.	32a-/	32cc\	.	.	.	.	.	.	.	.	.	.	.	.	.
.	32GG/	.	.	32e- 32A-\	.	32a-/	32cc\	.	.	.	.	.	.	.	.	.	.	.	.	.
.	32GG/	.	.	32e- 32A-\	.	32a-/	32cc\	.	.	.	.	.	.	.	.	.	.	.	.	.
.	32GG/	2rGG	.	32e- 32A-\	.	32a-/	32cc\	.	.	.	.	.	.	.	.	.	.	4A- 4E- 4C 4AA-\	4r	.
.	32GG/	.	.	32e- 32A-\	.	32a-/	32cc\	.	.	.	.	.	.	.	.	.	.	.	.	.
.	32GG/	.	.	32e- 32A-\	.	32a-/	32cc\	.	.	.	.	.	.	.	.	.	.	.	.	.
.	32GG/	.	.	32e- 32A-\	.	32a-/	32cc\	.	.	.	.	.	.	.	.	.	.	.	.	.
.	32GG/	.	.	32e- 32A-\	.	32a-/	32cc\	.	.	.	.	.	.	.	.	.	.	.	.	.
.	32GG/	.	.	32e- 32A-\	.	32a-/	32cc\	.	.	.	.	.	.	.	.	.	.	.	.	.
.	32GG/	.	.	32e- 32A-\	.	32a-/	32cc\	.	.	.	.	.	.	.	.	.	.	.	.	.
.	32GG/	.	.	32e- 32A-\	.	32a-/	32cc\	.	.	.	.	.	.	.	.	.	.	.	.	.
.	32GG/	.	.	32e- 32A-\	.	32a-/	32cc\	.	.	.	.	.	.	.	.	.	.	4r	4ee- 4cc 4a- 4e-/	.
.	32GG/	.	.	32e- 32A-\	.	32a-/	32cc\	.	.	.	.	.	.	.	.	.	.	.	.	.
.	32GG/	.	.	32e- 32A-\	.	32a-/	32cc\	.	.	.	.	.	.	.	.	.	.	.	.	.
.	32GG/	.	.	32e- 32A-\	.	32a-/	32cc\	.	.	.	.	.	.	.	.	.	.	.	.	.
.	32GG/	.	.	32e- 32A-\	.	32a-/	32cc\	.	.	.	.	.	.	.	.	.	.	.	.	.
.	32GG/	.	.	32e- 32A-\	.	32a-/	32cc\	.	.	.	.	.	.	.	.	.	.	.	.	.
.	32GG/	.	.	32e- 32A-\	.	32a-/	32cc\	.	.	.	.	.	.	.	.	.	.	.	.	.
.	32GG/JJJ	.	.	32e-JJJ 32A-\	.	32a-/JJJ	32cc\JJJ	.	.	.	.	.	.	.	.	.	.	.	.	.
.	32AA-/LLL	4AA-\	.	32e-LLL 32A-\	.	32a-/LLL	32cc\LLL	.	1AA-	-ma,	.	1c 1A-	.	.	1cc 1a-	.	.	4A- 4E- 4C 4AA-\	4r	.
.	32AA-/	.	.	32e- 32A-\	.	32a-/	32cc\	.	.	.	.	.	.	.	.	.	.	.	.	.
.	32AA-/	.	.	32e- 32A-\	.	32a-/	32cc\	.	.	.	.	.	.	.	.	.	.	.	.	.
.	32AA-/	.	.	32e- 32A-\	.	32a-/	32cc\	.	.	.	.	.	.	.	.	.	.	.	.	.
.	32AA-/	.	.	32e- 32A-\	.	32a-/	32cc\	.	.	.	.	.	.	.	.	.	.	.	.	.
.	32AA-/	.	.	32e- 32A-\	.	32a-/	32cc\	.	.	.	.	.	.	.	.	.	.	.	.	.
.	32AA-/	.	.	32e- 32A-\	.	32a-/	32cc\	.	.	.	.	.	.	.	.	.	.	.	.	.
.	32AA-/	.	.	32e- 32A-\	.	32a-/	32cc\	.	.	.	.	.	.	.	.	.	.	.	.	.
.	32AA-/	4rGG	.	32e- 32A-\	.	32a-/	32cc\	.	.	.	.	.	.	.	.	.	.	4r	4cc 4a- 4e-/	.
.	32AA-/	.	.	32e- 32A-\	.	32a-/	32cc\	.	.	.	.	.	.	.	.	.	.	.	.	.
.	32AA-/	.	.	32e- 32A-\	.	32a-/	32cc\	.	.	.	.	.	.	.	.	.	.	.	.	.
.	32AA-/	.	.	32e- 32A-\	.	32a-/	32cc\	.	.	.	.	.	.	.	.	.	.	.	.	.
.	32AA-/	.	.	32e- 32A-\	.	32a-/	32cc\	.	.	.	.	.	.	.	.	.	.	.	.	.
.	32AA-/	.	.	32e- 32A-\	.	32a-/	32cc\	.	.	.	.	.	.	.	.	.	.	.	.	.
.	32AA-/	.	.	32e- 32A-\	.	32a-/	32cc\	.	.	.	.	.	.	.	.	.	.	.	.	.
.	32AA-/	.	.	32e- 32A-\	.	32a-/	32cc\	.	.	.	.	.	.	.	.	.	.	.	.	.
.	32AA-/	2rGG	.	32e- 32A-\	.	32a-/	32cc\	.	.	.	.	.	.	.	.	.	.	4A- 4E- 4C 4AA-\	4r	.
.	32AA-/	.	.	32e- 32A-\	.	32a-/	32cc\	.	.	.	.	.	.	.	.	.	.	.	.	.
.	32AA-/	.	.	32e- 32A-\	.	32a-/	32cc\	.	.	.	.	.	.	.	.	.	.	.	.	.
.	32AA-/	.	.	32e- 32A-\	.	32a-/	32cc\	.	.	.	.	.	.	.	.	.	.	.	.	.
.	32AA-/	.	.	32e- 32A-\	.	32a-/	32cc\	.	.	.	.	.	.	.	.	.	.	.	.	.
.	32AA-/	.	.	32e- 32A-\	.	32a-/	32cc\	.	.	.	.	.	.	.	.	.	.	.	.	.
.	32AA-/	.	.	32e- 32A-\	.	32a-/	32cc\	.	.	.	.	.	.	.	.	.	.	.	.	.
.	32AA-/	.	.	32e- 32A-\	.	32a-/	32cc\	.	.	.	.	.	.	.	.	.	.	.	.	.
.	32AA-/	.	.	32e- 32A-\	.	32a-/	32cc\	.	.	.	.	.	.	.	.	.	.	4r	4ee- 4cc 4a- 4e-/	.
.	32AA-/	.	.	32e- 32A-\	.	32a-/	32cc\	.	.	.	.	.	.	.	.	.	.	.	.	.
.	32AA-/	.	.	32e- 32A-\	.	32a-/	32cc\	.	.	.	.	.	.	.	.	.	.	.	.	.
.	32AA-/	.	.	32e- 32A-\	.	32a-/	32cc\	.	.	.	.	.	.	.	.	.	.	.	.	.
.	32AA-/	.	.	32e- 32A-\	.	32a-/	32cc\	.	.	.	.	.	.	.	.	.	.	.	.	.
.	32AA-/	.	.	32e- 32A-\	.	32a-/	32cc\	.	.	.	.	.	.	.	.	.	.	.	.	.
.	32AA-/	.	.	32e- 32A-\	.	32a-/	32cc\	.	.	.	.	.	.	.	.	.	.	.	.	.
.	32AA-/JJJ	.	.	32e-JJJ 32A-\	.	32a-/JJJ	32cc\JJJ	.	.	.	.	.	.	.	.	.	.	.	.	.
!!LO:LB:g=original
=13	=13	=13	=13	=13	=13	=13	=13	=13	=13	=13	=13	=13	=13	=13	=13	=13	=13	=13	=13	=13
*	*	*	*	*	*	*	*	*	*	*	*	*^	*	*	*^	*	*	*	*	*
0ryy	32E-/LLL	4E-\	.	32e-\LLL	.	32g/LLL	32b-\LLL	.	2E-\	At-	.	2B-/	2G\	.	.	2b-/	2g\	.	.	4B- 4G 4E-\	4r	.
.	32E-/	.	.	32e-\	.	32g/	32b-\	.	.	.	.	.	.	.	.	.	.	.	.	.	.	.
.	32E-/	.	.	32e-\	.	32g/	32b-\	.	.	.	.	.	.	.	.	.	.	.	.	.	.	.
.	32E-/	.	.	32e-\	.	32g/	32b-\	.	.	.	.	.	.	.	.	.	.	.	.	.	.	.
.	32E-/	.	.	32e-\	.	32g/	32b-\	.	.	.	.	.	.	.	.	.	.	.	.	.	.	.
.	32E-/	.	.	32e-\	.	32g/	32b-\	.	.	.	.	.	.	.	.	.	.	.	.	.	.	.
.	32E-/	.	.	32e-\	.	32g/	32b-\	.	.	.	.	.	.	.	.	.	.	.	.	.	.	.
.	32E-/	.	.	32e-\	.	32g/	32b-\	.	.	.	.	.	.	.	.	.	.	.	.	.	.	.
.	32E-/	4rGG	.	32e-\	.	32g/	32b-\	.	.	.	.	.	.	.	.	.	.	.	.	4r	4b- 4g 4e-/	.
.	32E-/	.	.	32e-\	.	32g/	32b-\	.	.	.	.	.	.	.	.	.	.	.	.	.	.	.
.	32E-/	.	.	32e-\	.	32g/	32b-\	.	.	.	.	.	.	.	.	.	.	.	.	.	.	.
.	32E-/	.	.	32e-\	.	32g/	32b-\	.	.	.	.	.	.	.	.	.	.	.	.	.	.	.
.	32E-/	.	.	32e-\	.	32g/	32b-\	.	.	.	.	.	.	.	.	.	.	.	.	.	.	.
.	32E-/	.	.	32e-\	.	32g/	32b-\	.	.	.	.	.	.	.	.	.	.	.	.	.	.	.
.	32E-/	.	.	32e-\	.	32g/	32b-\	.	.	.	.	.	.	.	.	.	.	.	.	.	.	.
.	32E-/	.	.	32e-\	.	32g/	32b-\	.	.	.	.	.	.	.	.	.	.	.	.	.	.	.
.	32E-/	2rGG	.	32e-\	.	32g/	32b-\	.	2E-\	-que	.	2B-/	2G\	.	.	2b-/	2g\	.	.	4B- 4G 4E-\	4r	.
.	32E-/	.	.	32e-\	.	32g/	32b-\	.	.	.	.	.	.	.	.	.	.	.	.	.	.	.
.	32E-/	.	.	32e-\	.	32g/	32b-\	.	.	.	.	.	.	.	.	.	.	.	.	.	.	.
.	32E-/	.	.	32e-\	.	32g/	32b-\	.	.	.	.	.	.	.	.	.	.	.	.	.	.	.
.	32E-/	.	.	32e-\	.	32g/	32b-\	.	.	.	.	.	.	.	.	.	.	.	.	.	.	.
.	32E-/	.	.	32e-\	.	32g/	32b-\	.	.	.	.	.	.	.	.	.	.	.	.	.	.	.
.	32E-/	.	.	32e-\	.	32g/	32b-\	.	.	.	.	.	.	.	.	.	.	.	.	.	.	.
.	32E-/	.	.	32e-\	.	32g/	32b-\	.	.	.	.	.	.	.	.	.	.	.	.	.	.	.
.	32E-/	.	.	32e-\	.	32g/	32b-\	.	.	.	.	.	.	.	.	.	.	.	.	4r	4b- 4g 4e-/	.
.	32E-/	.	.	32e-\	.	32g/	32b-\	.	.	.	.	.	.	.	.	.	.	.	.	.	.	.
.	32E-/	.	.	32e-\	.	32g/	32b-\	.	.	.	.	.	.	.	.	.	.	.	.	.	.	.
.	32E-/	.	.	32e-\	.	32g/	32b-\	.	.	.	.	.	.	.	.	.	.	.	.	.	.	.
.	32E-/	.	.	32e-\	.	32g/	32b-\	.	.	.	.	.	.	.	.	.	.	.	.	.	.	.
.	32E-/	.	.	32e-\	.	32g/	32b-\	.	.	.	.	.	.	.	.	.	.	.	.	.	.	.
.	32E-/	.	.	32e-\	.	32g/	32b-\	.	.	.	.	.	.	.	.	.	.	.	.	.	.	.
.	32E-/JJJ	.	.	32e-\JJJ	.	32g/JJJ	32b-\JJJ	.	.	.	.	.	.	.	.	.	.	.	.	.	.	.
.	32A-/LLL	4A-\	.	32a-\LLL	.	32a-/LLL	32cc\LLL	.	2A-\	sem-	.	2c/	2A-\	.	.	2cc/	2a-\	.	.	4A- 4E- 4C 4AA-\	4r	.
.	32A-/	.	.	32a-\	.	32a-/	32cc\	.	.	.	.	.	.	.	.	.	.	.	.	.	.	.
.	32A-/	.	.	32a-\	.	32a-/	32cc\	.	.	.	.	.	.	.	.	.	.	.	.	.	.	.
.	32A-/	.	.	32a-\	.	32a-/	32cc\	.	.	.	.	.	.	.	.	.	.	.	.	.	.	.
.	32A-/	.	.	32a-\	.	32a-/	32cc\	.	.	.	.	.	.	.	.	.	.	.	.	.	.	.
.	32A-/	.	.	32a-\	.	32a-/	32cc\	.	.	.	.	.	.	.	.	.	.	.	.	.	.	.
.	32A-/	.	.	32a-\	.	32a-/	32cc\	.	.	.	.	.	.	.	.	.	.	.	.	.	.	.
.	32A-/	.	.	32a-\	.	32a-/	32cc\	.	.	.	.	.	.	.	.	.	.	.	.	.	.	.
.	32A-/	4rGG	.	32a-\	.	32a-/	32cc\	.	.	.	.	.	.	.	.	.	.	.	.	4r	4cc 4a- 4e-/	.
.	32A-/	.	.	32a-\	.	32a-/	32cc\	.	.	.	.	.	.	.	.	.	.	.	.	.	.	.
.	32A-/	.	.	32a-\	.	32a-/	32cc\	.	.	.	.	.	.	.	.	.	.	.	.	.	.	.
.	32A-/	.	.	32a-\	.	32a-/	32cc\	.	.	.	.	.	.	.	.	.	.	.	.	.	.	.
.	32A-/	.	.	32a-\	.	32a-/	32cc\	.	.	.	.	.	.	.	.	.	.	.	.	.	.	.
.	32A-/	.	.	32a-\	.	32a-/	32cc\	.	.	.	.	.	.	.	.	.	.	.	.	.	.	.
.	32A-/	.	.	32a-\	.	32a-/	32cc\	.	.	.	.	.	.	.	.	.	.	.	.	.	.	.
.	32A-/JJJ	.	.	32a-\JJJ	.	32a-/	32cc\JJJ	.	.	.	.	.	.	.	.	.	.	.	.	.	.	.
.	32F/LLL	4F\	.	32f\LLL	.	32a-/	32ddn\LLL	.	2F\	-per	.	2dn/	2A-\	.	.	2ddn/	2a-\	.	.	4F 4Dn 4BB- 4FF/	4r	.
.	32F/	.	.	32f\	.	32a-/	32dd\	.	.	.	.	.	.	.	.	.	.	.	.	.	.	.
.	32F/	.	.	32f\	.	32a-/	32dd\	.	.	.	.	.	.	.	.	.	.	.	.	.	.	.
.	32F/	.	.	32f\	.	32a-/	32dd\	.	.	.	.	.	.	.	.	.	.	.	.	.	.	.
.	32F/	.	.	32f\	.	32a-/	32dd\	.	.	.	.	.	.	.	.	.	.	.	.	.	.	.
.	32F/	.	.	32f\	.	32a-/	32dd\	.	.	.	.	.	.	.	.	.	.	.	.	.	.	.
.	32F/	.	.	32f\	.	32a-/	32dd\	.	.	.	.	.	.	.	.	.	.	.	.	.	.	.
.	32F/	.	.	32f\	.	32a-/	32dd\	.	.	.	.	.	.	.	.	.	.	.	.	.	.	.
.	32F/	4rGG	.	32f\	.	32a-/	32dd\	.	.	.	.	.	.	.	.	.	.	.	.	4r	4ddn 4b- 4a- 4f/	.
.	32F/	.	.	32f\	.	32a-/	32dd\	.	.	.	.	.	.	.	.	.	.	.	.	.	.	.
.	32F/	.	.	32f\	.	32a-/	32dd\	.	.	.	.	.	.	.	.	.	.	.	.	.	.	.
.	32F/	.	.	32f\	.	32a-/	32dd\	.	.	.	.	.	.	.	.	.	.	.	.	.	.	.
.	32F/	.	.	32f\	.	32a-/	32dd\	.	.	.	.	.	.	.	.	.	.	.	.	.	.	.
.	32F/	.	.	32f\	.	32a-/	32dd\	.	.	.	.	.	.	.	.	.	.	.	.	.	.	.
.	32F/	.	.	32f\	.	32a-/	32dd\	.	.	.	.	.	.	.	.	.	.	.	.	.	.	.
.	32F/JJJ	.	.	32f\JJJ	.	32a-/JJJ	32dd\JJJ	.	.	.	.	.	.	.	.	.	.	.	.	.	.	.
*	*	*	*	*	*	*	*	*	*	*	*	*v	*v	*	*	*	*	*	*	*	*	*
*	*	*	*	*	*	*	*	*	*	*	*	*	*	*	*v	*v	*	*	*	*	*
=14	=14	=14	=14	=14	=14	=14	=14	=14	=14	=14	=14	=14	=14	=14	=14	=14	=14	=14	=14	=14
0ryy	32E-/LLL	4E-\	.	32e-\LLL	.	32g/LLL	32ee-\LLL	.	1E-	vir-	.	1e- 1G	.	.	1ee- 1g	.	.	4E- 4BB- 4GG 4EE-/	4r	.
.	32E-/	.	.	32e-\	.	32g/	32ee-\	.	.	.	.	.	.	.	.	.	.	.	.	.
.	32E-/	.	.	32e-\	.	32g/	32ee-\	.	.	.	.	.	.	.	.	.	.	.	.	.
.	32E-/	.	.	32e-\	.	32g/	32ee-\	.	.	.	.	.	.	.	.	.	.	.	.	.
.	32E-/	.	.	32e-\	.	32g/	32ee-\	.	.	.	.	.	.	.	.	.	.	.	.	.
.	32E-/	.	.	32e-\	.	32g/	32ee-\	.	.	.	.	.	.	.	.	.	.	.	.	.
.	32E-/	.	.	32e-\	.	32g/	32ee-\	.	.	.	.	.	.	.	.	.	.	.	.	.
.	32E-/	.	.	32e-\	.	32g/	32ee-\	.	.	.	.	.	.	.	.	.	.	.	.	.
.	32E-/	4rGG	.	32e-\	.	32g/	32ee-\	.	.	.	.	.	.	.	.	.	.	4r	4ee- 4b- 4g 4e-/	.
.	32E-/	.	.	32e-\	.	32g/	32ee-\	.	.	.	.	.	.	.	.	.	.	.	.	.
.	32E-/	.	.	32e-\	.	32g/	32ee-\	.	.	.	.	.	.	.	.	.	.	.	.	.
.	32E-/	.	.	32e-\	.	32g/	32ee-\	.	.	.	.	.	.	.	.	.	.	.	.	.
.	32E-/	.	.	32e-\	.	32g/	32ee-\	.	.	.	.	.	.	.	.	.	.	.	.	.
.	32E-/	.	.	32e-\	.	32g/	32ee-\	.	.	.	.	.	.	.	.	.	.	.	.	.
.	32E-/	.	.	32e-\	.	32g/	32ee-\	.	.	.	.	.	.	.	.	.	.	.	.	.
.	32E-/	.	.	32e-\	.	32g/	32ee-\	.	.	.	.	.	.	.	.	.	.	.	.	.
.	32E-/	2rGG	.	32e-\	.	32g/	32ee-\	.	.	.	.	.	.	.	.	.	.	4E- 4BB- 4GG 4EE-/	4r	.
.	32E-/	.	.	32e-\	.	32g/	32ee-\	.	.	.	.	.	.	.	.	.	.	.	.	.
.	32E-/	.	.	32e-\	.	32g/	32ee-\	.	.	.	.	.	.	.	.	.	.	.	.	.
.	32E-/	.	.	32e-\	.	32g/	32ee-\	.	.	.	.	.	.	.	.	.	.	.	.	.
.	32E-/	.	.	32e-\	.	32g/	32ee-\	.	.	.	.	.	.	.	.	.	.	.	.	.
.	32E-/	.	.	32e-\	.	32g/	32ee-\	.	.	.	.	.	.	.	.	.	.	.	.	.
.	32E-/	.	.	32e-\	.	32g/	32ee-\	.	.	.	.	.	.	.	.	.	.	.	.	.
.	32E-/	.	.	32e-\	.	32g/	32ee-\	.	.	.	.	.	.	.	.	.	.	.	.	.
.	32E-/	.	.	32e-\	.	32g/	32ee-\	.	.	.	.	.	.	.	.	.	.	4r	4ee- 4b- 4g 4e-/	.
.	32E-/	.	.	32e-\	.	32g/	32ee-\	.	.	.	.	.	.	.	.	.	.	.	.	.
.	32E-/	.	.	32e-\	.	32g/	32ee-\	.	.	.	.	.	.	.	.	.	.	.	.	.
.	32E-/	.	.	32e-\	.	32g/	32ee-\	.	.	.	.	.	.	.	.	.	.	.	.	.
.	32E-/	.	.	32e-\	.	32g/	32ee-\	.	.	.	.	.	.	.	.	.	.	.	.	.
.	32E-/	.	.	32e-\	.	32g/	32ee-\	.	.	.	.	.	.	.	.	.	.	.	.	.
.	32E-/	.	.	32e-\	.	32g/	32ee-\	.	.	.	.	.	.	.	.	.	.	.	.	.
.	32E-/JJJ	.	.	32e-\JJJ	.	32g/JJJ	32ee-\JJJ	.	.	.	.	.	.	.	.	.	.	.	.	.
.	32AA-/LLL	4AA-\	.	32e-LLL 32A-/	.	32a-/LLL	32cc\LLL	.	1AA-	-go	.	1c 1A-	.	.	1cc 1a-	.	.	4A- 4E- 4C 4AA-\	4r	.
.	32AA-/	.	.	32e- 32A-/	.	32a-/	32cc\	.	.	.	.	.	.	.	.	.	.	.	.	.
.	32AA-/	.	.	32e- 32A-/	.	32a-/	32cc\	.	.	.	.	.	.	.	.	.	.	.	.	.
.	32AA-/	.	.	32e- 32A-/	.	32a-/	32cc\	.	.	.	.	.	.	.	.	.	.	.	.	.
.	32AA-/	.	.	32e- 32A-/	.	32a-/	32cc\	.	.	.	.	.	.	.	.	.	.	.	.	.
.	32AA-/	.	.	32e- 32A-/	.	32a-/	32cc\	.	.	.	.	.	.	.	.	.	.	.	.	.
.	32AA-/	.	.	32e- 32A-/	.	32a-/	32cc\	.	.	.	.	.	.	.	.	.	.	.	.	.
.	32AA-/	.	.	32e- 32A-/	.	32a-/	32cc\	.	.	.	.	.	.	.	.	.	.	.	.	.
.	32AA-/	4rGG	.	32e- 32A-/	.	32a-/	32cc\	.	.	.	.	.	.	.	.	.	.	4r	4cc 4a- 4e-/	.
.	32AA-/	.	.	32e- 32A-/	.	32a-/	32cc\	.	.	.	.	.	.	.	.	.	.	.	.	.
.	32AA-/	.	.	32e- 32A-/	.	32a-/	32cc\	.	.	.	.	.	.	.	.	.	.	.	.	.
.	32AA-/	.	.	32e- 32A-/	.	32a-/	32cc\	.	.	.	.	.	.	.	.	.	.	.	.	.
.	32AA-/	.	.	32e- 32A-/	.	32a-/	32cc\	.	.	.	.	.	.	.	.	.	.	.	.	.
.	32AA-/	.	.	32e- 32A-/	.	32a-/	32cc\	.	.	.	.	.	.	.	.	.	.	.	.	.
.	32AA-/	.	.	32e- 32A-/	.	32a-/	32cc\	.	.	.	.	.	.	.	.	.	.	.	.	.
.	32AA-/	.	.	32e- 32A-/	.	32a-/	32cc\	.	.	.	.	.	.	.	.	.	.	.	.	.
.	32AA-/	2rGG	.	32e- 32A-/	.	32a-/	32cc\	.	.	.	.	.	.	.	.	.	.	4A- 4E- 4C 4AA-\	4r	.
.	32AA-/	.	.	32e- 32A-/	.	32a-/	32cc\	.	.	.	.	.	.	.	.	.	.	.	.	.
.	32AA-/	.	.	32e- 32A-/	.	32a-/	32cc\	.	.	.	.	.	.	.	.	.	.	.	.	.
.	32AA-/	.	.	32e- 32A-/	.	32a-/	32cc\	.	.	.	.	.	.	.	.	.	.	.	.	.
.	32AA-/	.	.	32e- 32A-/	.	32a-/	32cc\	.	.	.	.	.	.	.	.	.	.	.	.	.
.	32AA-/	.	.	32e- 32A-/	.	32a-/	32cc\	.	.	.	.	.	.	.	.	.	.	.	.	.
.	32AA-/	.	.	32e- 32A-/	.	32a-/	32cc\	.	.	.	.	.	.	.	.	.	.	.	.	.
.	32AA-/	.	.	32e- 32A-/	.	32a-/	32cc\	.	.	.	.	.	.	.	.	.	.	.	.	.
.	32AA-/	.	.	32e- 32A-/	.	32a-/	32cc\	.	.	.	.	.	.	.	.	.	.	4r	4cc 4a- 4e-/	.
.	32AA-/	.	.	32e- 32A-/	.	32a-/	32cc\	.	.	.	.	.	.	.	.	.	.	.	.	.
.	32AA-/	.	.	32e- 32A-/	.	32a-/	32cc\	.	.	.	.	.	.	.	.	.	.	.	.	.
.	32AA-/	.	.	32e- 32A-/	.	32a-/	32cc\	.	.	.	.	.	.	.	.	.	.	.	.	.
.	32AA-/	.	.	32e- 32A-/	.	32a-/	32cc\	.	.	.	.	.	.	.	.	.	.	.	.	.
.	32AA-/	.	.	32e- 32A-/	.	32a-/	32cc\	.	.	.	.	.	.	.	.	.	.	.	.	.
.	32AA-/	.	.	32e- 32A-/	.	32a-/	32cc\	.	.	.	.	.	.	.	.	.	.	.	.	.
.	32AA-/JJJ	.	.	32e-JJJ 32A-/	.	32a-/JJJ	32cc\JJJ	.	.	.	.	.	.	.	.	.	.	.	.	.
=15	=15	=15	=15	=15	=15	=15	=15	=15	=15	=15	=15	=15	=15	=15	=15	=15	=15	=15	=15	=15
*	*	*	*	*	*	*	*	*	*	*	*	*^	*	*	*^	*	*	*	*	*
0ryy	32BB-/LLL	4BB-\	.	32e-LLL 32B-/	.	32g/LLL	32g\LLL	.	2AA-/	Fe-	.	2B-/	2G\	.	.	2b-/	2g\	.	.	4B- 4G 4E- 4BB-\	4r	.
.	32BB-/	.	.	32e- 32B-/	.	32g/	32g\	.	.	.	.	.	.	.	.	.	.	.	.	.	.	.
.	32BB-/	.	.	32e- 32B-/	.	32g/	32g\	.	.	.	.	.	.	.	.	.	.	.	.	.	.	.
.	32BB-/	.	.	32e- 32B-/	.	32g/	32g\	.	.	.	.	.	.	.	.	.	.	.	.	.	.	.
.	32BB-/	.	.	32e- 32B-/	.	32g/	32g\	.	.	.	.	.	.	.	.	.	.	.	.	.	.	.
.	32BB-/	.	.	32e- 32B-/	.	32g/	32g\	.	.	.	.	.	.	.	.	.	.	.	.	.	.	.
.	32BB-/	.	.	32e- 32B-/	.	32g/	32g\	.	.	.	.	.	.	.	.	.	.	.	.	.	.	.
.	32BB-/	.	.	32e- 32B-/	.	32g/	32g\	.	.	.	.	.	.	.	.	.	.	.	.	.	.	.
.	32BB-/	4rGG	.	32e- 32B-/	.	32g/	32g\	.	.	.	.	.	.	.	.	.	.	.	.	4r	4b- 4g 4e-/	.
.	32BB-/	.	.	32e- 32B-/	.	32g/	32g\	.	.	.	.	.	.	.	.	.	.	.	.	.	.	.
.	32BB-/	.	.	32e- 32B-/	.	32g/	32g\	.	.	.	.	.	.	.	.	.	.	.	.	.	.	.
.	32BB-/	.	.	32e- 32B-/	.	32g/	32g\	.	.	.	.	.	.	.	.	.	.	.	.	.	.	.
.	32BB-/	.	.	32e- 32B-/	.	32g/	32g\	.	.	.	.	.	.	.	.	.	.	.	.	.	.	.
.	32BB-/	.	.	32e- 32B-/	.	32g/	32g\	.	.	.	.	.	.	.	.	.	.	.	.	.	.	.
.	32BB-/	.	.	32e- 32B-/	.	32g/	32g\	.	.	.	.	.	.	.	.	.	.	.	.	.	.	.
.	32BB-/	.	.	32e- 32B-/	.	32g/	32g\JJJ	.	.	.	.	.	.	.	.	.	.	.	.	.	.	.
.	32BB-/	2rGG	.	32e- 32B-/	.	32g/	32ee-\LLL	.	2BB-/	-lix	.	2e-\	2G\	.	.	2ee-/	2g\	.	.	4B- 4G 4E- 4BB-\	4r	.
.	32BB-/	.	.	32e- 32B-/	.	32g/	32ee-\	.	.	.	.	.	.	.	.	.	.	.	.	.	.	.
.	32BB-/	.	.	32e- 32B-/	.	32g/	32ee-\	.	.	.	.	.	.	.	.	.	.	.	.	.	.	.
.	32BB-/	.	.	32e- 32B-/	.	32g/	32ee-\	.	.	.	.	.	.	.	.	.	.	.	.	.	.	.
.	32BB-/	.	.	32e- 32B-/	.	32g/	32ee-\	.	.	.	.	.	.	.	.	.	.	.	.	.	.	.
.	32BB-/	.	.	32e- 32B-/	.	32g/	32ee-\	.	.	.	.	.	.	.	.	.	.	.	.	.	.	.
.	32BB-/	.	.	32e- 32B-/	.	32g/	32ee-\	.	.	.	.	.	.	.	.	.	.	.	.	.	.	.
.	32BB-/	.	.	32e- 32B-/	.	32g/	32ee-\	.	.	.	.	.	.	.	.	.	.	.	.	.	.	.
.	32BB-/	.	.	32e- 32B-/	.	32g/	32ee-\	.	.	.	.	.	.	.	.	.	.	.	.	4r	4ee- 4b- 4g 4e-/	.
.	32BB-/	.	.	32e- 32B-/	.	32g/	32ee-\	.	.	.	.	.	.	.	.	.	.	.	.	.	.	.
.	32BB-/	.	.	32e- 32B-/	.	32g/	32ee-\	.	.	.	.	.	.	.	.	.	.	.	.	.	.	.
.	32BB-/	.	.	32e- 32B-/	.	32g/	32ee-\	.	.	.	.	.	.	.	.	.	.	.	.	.	.	.
.	32BB-/	.	.	32e- 32B-/	.	32g/	32ee-\	.	.	.	.	.	.	.	.	.	.	.	.	.	.	.
.	32BB-/	.	.	32e- 32B-/	.	32g/	32ee-\	.	.	.	.	.	.	.	.	.	.	.	.	.	.	.
.	32BB-/	.	.	32e- 32B-/	.	32g/	32ee-\	.	.	.	.	.	.	.	.	.	.	.	.	.	.	.
.	32BB-/JJJ	.	.	32e-JJJ 32B-/	.	32g/JJJ	32ee-\	.	.	.	.	.	.	.	.	.	.	.	.	.	.	.
.	32BB-/LLL	4BB-\	.	32fLLL 32B-/	.	32f/LLL	32ee-\	.	2BB-/	cae-	.	2e-/	2F\	.	.	2ee-/	2f\	.	.	4B- 4A- 4F 4BB-\	4r	.
.	32BB-/	.	.	32f 32B-/	.	32f/	32ee-\	.	.	.	.	.	.	.	.	.	.	.	.	.	.	.
.	32BB-/	.	.	32f 32B-/	.	32f/	32ee-\	.	.	.	.	.	.	.	.	.	.	.	.	.	.	.
.	32BB-/	.	.	32f 32B-/	.	32f/	32ee-\	.	.	.	.	.	.	.	.	.	.	.	.	.	.	.
.	32BB-/	.	.	32f 32B-/	.	32f/	32ee-\	.	.	.	.	.	.	.	.	.	.	.	.	.	.	.
.	32BB-/	.	.	32f 32B-/	.	32f/	32ee-\	.	.	.	.	.	.	.	.	.	.	.	.	.	.	.
.	32BB-/	.	.	32f 32B-/	.	32f/	32ee-\	.	.	.	.	.	.	.	.	.	.	.	.	.	.	.
.	32BB-/	.	.	32f 32B-/	.	32f/	32ee-\	.	.	.	.	.	.	.	.	.	.	.	.	.	.	.
.	32BB-/	4rGG	.	32f 32B-/	.	32f/	32ee-\	.	.	.	.	.	.	.	.	.	.	.	.	4r	4ee- 4b- 4f/	.
.	32BB-/	.	.	32f 32B-/	.	32f/	32ee-\	.	.	.	.	.	.	.	.	.	.	.	.	.	.	.
.	32BB-/	.	.	32f 32B-/	.	32f/	32ee-\	.	.	.	.	.	.	.	.	.	.	.	.	.	.	.
.	32BB-/	.	.	32f 32B-/	.	32f/	32ee-\	.	.	.	.	.	.	.	.	.	.	.	.	.	.	.
.	32BB-/	.	.	32f 32B-/	.	32f/	32ee-\	.	.	.	.	.	.	.	.	.	.	.	.	.	.	.
.	32BB-/	.	.	32f 32B-/	.	32f/	32ee-\	.	.	.	.	.	.	.	.	.	.	.	.	.	.	.
.	32BB-/	.	.	32f 32B-/	.	32f/	32ee-\	.	.	.	.	.	.	.	.	.	.	.	.	.	.	.
.	32BB-/	.	.	32f 32B-/	.	32f/	32ee-\JJJ	.	.	.	.	.	.	.	.	.	.	.	.	.	.	.
.	32BB-/	2rGG	.	32f 32B-/	.	32f/	32ddn\LLL	.	2BB-/	-li	.	2dn/	2F\	.	.	2ddn/	2f\	.	.	4B- 4A- 4F 4BB-\	4r	.
.	32BB-/	.	.	32f 32B-/	.	32f/	32dd\	.	.	.	.	.	.	.	.	.	.	.	.	.	.	.
.	32BB-/	.	.	32f 32B-/	.	32f/	32dd\	.	.	.	.	.	.	.	.	.	.	.	.	.	.	.
.	32BB-/	.	.	32f 32B-/	.	32f/	32dd\	.	.	.	.	.	.	.	.	.	.	.	.	.	.	.
.	32BB-/	.	.	32f 32B-/	.	32f/	32dd\	.	.	.	.	.	.	.	.	.	.	.	.	.	.	.
.	32BB-/	.	.	32f 32B-/	.	32f/	32dd\	.	.	.	.	.	.	.	.	.	.	.	.	.	.	.
.	32BB-/	.	.	32f 32B-/	.	32f/	32dd\	.	.	.	.	.	.	.	.	.	.	.	.	.	.	.
.	32BB-/	.	.	32f 32B-/	.	32f/	32dd\	.	.	.	.	.	.	.	.	.	.	.	.	.	.	.
.	32BB-/	.	.	32f 32B-/	.	32f/	32dd\	.	.	.	.	.	.	.	.	.	.	.	.	4r	4ddn 4b- 4f/	.
.	32BB-/	.	.	32f 32B-/	.	32f/	32dd\	.	.	.	.	.	.	.	.	.	.	.	.	.	.	.
.	32BB-/	.	.	32f 32B-/	.	32f/	32dd\	.	.	.	.	.	.	.	.	.	.	.	.	.	.	.
.	32BB-/	.	.	32f 32B-/	.	32f/	32dd\	.	.	.	.	.	.	.	.	.	.	.	.	.	.	.
.	32BB-/	.	.	32f 32B-/	.	32f/	32dd\	.	.	.	.	.	.	.	.	.	.	.	.	.	.	.
.	32BB-/	.	.	32f 32B-/	.	32f/	32dd\	.	.	.	.	.	.	.	.	.	.	.	.	.	.	.
.	32BB-/	.	.	32f 32B-/	.	32f/	32dd\	.	.	.	.	.	.	.	.	.	.	.	.	.	.	.
.	32BB-/JJJ	.	.	32fJJJ 32B-/	.	32f/JJJ	32dd\JJJ	.	.	.	.	.	.	.	.	.	.	.	.	.	.	.
*	*	*	*	*	*	*	*	*	*	*	*	*v	*v	*	*	*	*	*	*	*	*	*
*	*	*	*	*	*	*	*	*	*	*	*	*	*	*	*v	*v	*	*	*	*	*
=16	=16	=16	=16	=16	=16	=16	=16	=16	=16	=16	=16	=16	=16	=16	=16	=16	=16	=16	=16	=16
0ryy	32E-/LLL	4E-\	.	32gLLL 32B-\	.	32g/LLL	32ee-\LLL	.	1E-	por-	.	1e- 1G	.	.	1ee- 1g	.	.	8E-\L	8e-/L	.
.	32E-/	.	.	32g 32B-\	.	32g/	32ee-\	.	.	.	.	.	.	.	.	.	.	.	.	.
.	32E-/	.	.	32g 32B-\	.	32g/	32ee-\	.	.	.	.	.	.	.	.	.	.	.	.	.
.	32E-/	.	.	32g 32B-\	.	32g/	32ee-\	.	.	.	.	.	.	.	.	.	.	.	.	.
.	32E-/	.	.	32g 32B-\	.	32g/	32ee-\	.	.	.	.	.	.	.	.	.	.	8G\	8g/	.
.	32E-/	.	.	32g 32B-\	.	32g/	32ee-\	.	.	.	.	.	.	.	.	.	.	.	.	.
.	32E-/	.	.	32g 32B-\	.	32g/	32ee-\	.	.	.	.	.	.	.	.	.	.	.	.	.
.	32E-/	.	.	32g 32B-\	.	32g/	32ee-\	.	.	.	.	.	.	.	.	.	.	.	.	.
.	32E-/	4rGG	.	32g 32B-\	.	32g/	32ee-\	.	.	.	.	.	.	.	.	.	.	8B-\	8b-/	.
.	32E-/	.	.	32g 32B-\	.	32g/	32ee-\	.	.	.	.	.	.	.	.	.	.	.	.	.
.	32E-/	.	.	32g 32B-\	.	32g/	32ee-\	.	.	.	.	.	.	.	.	.	.	.	.	.
.	32E-/	.	.	32g 32B-\	.	32g/	32ee-\	.	.	.	.	.	.	.	.	.	.	.	.	.
.	32E-/	.	.	32g 32B-\	.	32g/	32ee-\	.	.	.	.	.	.	.	.	.	.	8e->\J	8ee-/J	.
.	32E-/	.	.	32g 32B-\	.	32g/	32ee-\	.	.	.	.	.	.	.	.	.	.	.	.	.
.	32E-/	.	.	32g 32B-\	.	32g/	32ee-\	.	.	.	.	.	.	.	.	.	.	.	.	.
.	32E-/	.	.	32g 32B-\	.	32g/	32ee-\	.	.	.	.	.	.	.	.	.	.	.	.	.
.	32E-/	2rGG	.	32g 32B-\	.	32g/	32ee-\	.	.	.	.	.	.	.	.	.	.	8g>\L	8gg/L	.
.	32E-/	.	.	32g 32B-\	.	32g/	32ee-\	.	.	.	.	.	.	.	.	.	.	.	.	.
.	32E-/	.	.	32g 32B-\	.	32g/	32ee-\	.	.	.	.	.	.	.	.	.	.	.	.	.
.	32E-/	.	.	32g 32B-\	.	32g/	32ee-\	.	.	.	.	.	.	.	.	.	.	.	.	.
.	32E-/	.	.	32g 32B-\	.	32g/	32ee-\	.	.	.	.	.	.	.	.	.	.	8e->\	8ee-/	.
.	32E-/	.	.	32g 32B-\	.	32g/	32ee-\	.	.	.	.	.	.	.	.	.	.	.	.	.
.	32E-/	.	.	32g 32B-\	.	32g/	32ee-\	.	.	.	.	.	.	.	.	.	.	.	.	.
.	32E-/	.	.	32g 32B-\	.	32g/	32ee-\	.	.	.	.	.	.	.	.	.	.	.	.	.
.	32E-/	.	.	32g 32B-\	.	32g/	32ee-\	.	.	.	.	.	.	.	.	.	.	8B-\	8b-/	.
.	32E-/	.	.	32g 32B-\	.	32g/	32ee-\	.	.	.	.	.	.	.	.	.	.	.	.	.
.	32E-/	.	.	32g 32B-\	.	32g/	32ee-\	.	.	.	.	.	.	.	.	.	.	.	.	.
.	32E-/	.	.	32g 32B-\	.	32g/	32ee-\	.	.	.	.	.	.	.	.	.	.	.	.	.
.	32E-/	.	.	32g 32B-\	.	32g/	32ee-\	.	.	.	.	.	.	.	.	.	.	8G\J	8g/J	.
.	32E-/	.	.	32g 32B-\	.	32g/	32ee-\	.	.	.	.	.	.	.	.	.	.	.	.	.
.	32E-/	.	.	32g 32B-\	.	32g/	32ee-\	.	.	.	.	.	.	.	.	.	.	.	.	.
.	32E-/JJJ	.	.	32gJJJ 32B-\	.	32g/JJJ	32ee-\JJJ	.	.	.	.	.	.	.	.	.	.	.	.	.
.	32E-/LLL	4E-\	.	32gLLL 32B-\	.	32g/LLL	32ee-\LLL	.	1E-	-ta	.	1e- 1G	.	.	1ee- 1g	.	.	4E-\	4e-/	.
.	32E-/	.	.	32g 32B-\	.	32g/	32ee-\	.	.	.	.	.	.	.	.	.	.	.	.	.
.	32E-/	.	.	32g 32B-\	.	32g/	32ee-\	.	.	.	.	.	.	.	.	.	.	.	.	.
.	32E-/	.	.	32g 32B-\	.	32g/	32ee-\	.	.	.	.	.	.	.	.	.	.	.	.	.
.	32E-/	.	.	32g 32B-\	.	32g/	32ee-\	.	.	.	.	.	.	.	.	.	.	.	.	.
.	32E-/	.	.	32g 32B-\	.	32g/	32ee-\	.	.	.	.	.	.	.	.	.	.	.	.	.
.	32E-/	.	.	32g 32B-\	.	32g/	32ee-\	.	.	.	.	.	.	.	.	.	.	.	.	.
.	32E-/	.	.	32g 32B-\	.	32g/	32ee-\	.	.	.	.	.	.	.	.	.	.	.	.	.
.	32E-/	4rGG	.	32g 32B-\	.	32g/	32ee-\	.	.	.	.	.	.	.	.	.	.	4r	4r	.
.	32E-/	.	.	32g 32B-\	.	32g/	32ee-\	.	.	.	.	.	.	.	.	.	.	.	.	.
.	32E-/	.	.	32g 32B-\	.	32g/	32ee-\	.	.	.	.	.	.	.	.	.	.	.	.	.
.	32E-/	.	.	32g 32B-\	.	32g/	32ee-\	.	.	.	.	.	.	.	.	.	.	.	.	.
.	32E-/	.	.	32g 32B-\	.	32g/	32ee-\	.	.	.	.	.	.	.	.	.	.	.	.	.
.	32E-/	.	.	32g 32B-\	.	32g/	32ee-\	.	.	.	.	.	.	.	.	.	.	.	.	.
.	32E-/	.	.	32g 32B-\	.	32g/	32ee-\	.	.	.	.	.	.	.	.	.	.	.	.	.
.	32E-/	.	.	32g 32B-\	.	32g/	32ee-\	.	.	.	.	.	.	.	.	.	.	.	.	.
.	32E-/	2rGG	.	32g 32B-\	.	32g/	32ee-\	.	.	.	.	.	.	.	.	.	.	4B- 4G 4E-\	4ee- 4b- 4g 4e-/	.
.	32E-/	.	.	32g 32B-\	.	32g/	32ee-\	.	.	.	.	.	.	.	.	.	.	.	.	.
.	32E-/	.	.	32g 32B-\	.	32g/	32ee-\	.	.	.	.	.	.	.	.	.	.	.	.	.
.	32E-/	.	.	32g 32B-\	.	32g/	32ee-\	.	.	.	.	.	.	.	.	.	.	.	.	.
.	32E-/	.	.	32g 32B-\	.	32g/	32ee-\	.	.	.	.	.	.	.	.	.	.	.	.	.
.	32E-/	.	.	32g 32B-\	.	32g/	32ee-\	.	.	.	.	.	.	.	.	.	.	.	.	.
.	32E-/	.	.	32g 32B-\	.	32g/	32ee-\	.	.	.	.	.	.	.	.	.	.	.	.	.
.	32E-/	.	.	32g 32B-\	.	32g/	32ee-\	.	.	.	.	.	.	.	.	.	.	.	.	.
.	32E-/	.	.	32g 32B-\	.	32g/	32ee-\	.	.	.	.	.	.	.	.	.	.	4r	4r	.
.	32E-/	.	.	32g 32B-\	.	32g/	32ee-\	.	.	.	.	.	.	.	.	.	.	.	.	.
.	32E-/	.	.	32g 32B-\	.	32g/	32ee-\	.	.	.	.	.	.	.	.	.	.	.	.	.
.	32E-/	.	.	32g 32B-\	.	32g/	32ee-\	.	.	.	.	.	.	.	.	.	.	.	.	.
.	32E-/	.	.	32g 32B-\	.	32g/	32ee-\	.	.	.	.	.	.	.	.	.	.	.	.	.
.	32E-/	.	.	32g 32B-\	.	32g/	32ee-\	.	.	.	.	.	.	.	.	.	.	.	.	.
.	32E-/	.	.	32g 32B-\	.	32g/	32ee-\	.	.	.	.	.	.	.	.	.	.	.	.	.
.	32E-/JJJ	.	.	32gJJJ 32B-\	.	32g/JJJ	32ee-\JJJ	.	.	.	.	.	.	.	.	.	.	.	.	.
*	*v	*v	*	*	*	*	*	*	*	*	*	*	*	*	*	*	*	*	*	*
!!LO:PB:g=original
=17	=17	=17	=17	=17	=17	=17	=17	=17	=17	=17	=17	=17	=17	=17	=17	=17	=17	=17	=17
*	*	*	*	*	*	*	*	*	*	*	*^	*	*	*	*	*	*	*	*
!	!	!	!	!	!	!	!	!	!	!	!	!	!	!LO:DY:b:rj	!	!	!	!	!	!LO:DY:b:rj
0ryy	1r	.	1r	.	1r	1r	.	2D-\	Su-	.	2f\	2A-\	.	p	1r	.	.	4d-\ 4A-\ 4F\ 4D-\	4ff 4dd- 4a- 4f/	p
.	.	.	.	.	.	.	.	.	.	.	.	.	.	.	.	.	.	4r	4r	.
.	.	.	.	.	.	.	.	2D-\	-mens	.	2f\	2A-\	.	.	.	.	.	4d-\ 4A-\ 4F\ 4D-\	4ff 4dd- 4a- 4f/	.
.	.	.	.	.	.	.	.	.	.	.	.	.	.	.	.	.	.	4r	4r	.
.	1r	.	1r	.	1r	1r	.	2D-\	i-	.	2d-\	2F\	.	.	1r	.	.	4d-\ 4A-\ 4F\ 4D-\	4dd- 4a- 4f/	.
.	.	.	.	.	.	.	.	.	.	.	.	.	.	.	.	.	.	4r	4r	.
.	.	.	.	.	.	.	.	2D-\	-lut	.	2B-/	2F\	.	.	.	.	.	4B-\ 4F\ 4D-\	4b- 4f 4d-/	.
.	.	.	.	.	.	.	.	.	.	.	.	.	.	.	.	.	.	4r	4r	.
*	*	*	*	*	*	*	*	*	*	*	*v	*v	*	*	*	*	*	*	*	*
=18	=18	=18	=18	=18	=18	=18	=18	=18	=18	=18	=18	=18	=18	=18	=18	=18	=18	=18	=18
0ryy	1r	.	1r	.	1r	1r	.	[>1E-	a-	.	1G 1E-	.	.	1r	.	.	4E-/ 4EE-/	4g 4e- 4B-/	.
.	.	.	.	.	.	.	.	.	.	.	.	.	.	.	.	.	4r	4r	.
.	.	.	.	.	.	.	.	.	.	.	.	.	.	.	.	.	4E-/ 4EE-/	4g 4e- 4B-/	.
.	.	.	.	.	.	.	.	.	.	.	.	.	.	.	.	.	4r	4r	.
.	1r	.	1r	.	1r	1r	.	2E-\]	.	.	1B- 1G	.	.	1r	.	.	4E-/ 4EE-/	4b- 4g 4e- 4B-/	.
.	.	.	.	.	.	.	.	.	.	.	.	.	.	.	.	.	4r	4r	.
.	.	.	.	.	.	.	.	2D-\	-ve	.	.	.	.	.	.	.	4E-/ 4EE-/	4b- 4g 4e- 4B-/	.
.	.	.	.	.	.	.	.	.	.	.	.	.	.	.	.	.	4r	4r	.
=19	=19	=19	=19	=19	=19	=19	=19	=19	=19	=19	=19	=19	=19	=19	=19	=19	=19	=19	=19
*	*^	*	*	*	*	*	*	*	*	*	*^	*	*	*^	*	*	*	*	*
!	!	!	!	!	!LO:DY:b:rj	!	!	!LO:DY:b:rj	!	!	!LO:DY:b:rj	!	!	!	!	!	!	!	!LO:DY:b:rj	!	!	!LO:DY:b:rj
0ryy	32C/LLL	4C\	.	32e-LLL 32A-\	f	32a-/LLL	32a-/LLL	f	2C/	Ga-	f	2A-/	2A-\	.	.	2a-/	2a-\	Ga-	f	4C/ 4CC/	4a- 4e- 4A-/	f
.	32C/	.	.	32e- 32A-\	.	32a-/	32a-/	.	.	.	.	.	.	.	.	.	.	.	.	.	.	.
.	32C/	.	.	32e- 32A-\	.	32a-/	32a-/	.	.	.	.	.	.	.	.	.	.	.	.	.	.	.
.	32C/	.	.	32e- 32A-\	.	32a-/	32a-/	.	.	.	.	.	.	.	.	.	.	.	.	.	.	.
.	32C/	.	.	32e- 32A-\	.	32a-/	32a-/	.	.	.	.	.	.	.	.	.	.	.	.	.	.	.
.	32C/	.	.	32e- 32A-\	.	32a-/	32a-/	.	.	.	.	.	.	.	.	.	.	.	.	.	.	.
.	32C/	.	.	32e- 32A-\	.	32a-/	32a-/	.	.	.	.	.	.	.	.	.	.	.	.	.	.	.
.	32C/	.	.	32e- 32A-\	.	32a-/	32a-/	.	.	.	.	.	.	.	.	.	.	.	.	.	.	.
.	32C/	4rGG	.	32e- 32A-\	.	32a-/	32a-/	.	.	.	.	.	.	.	.	.	.	.	.	4r	4r	.
.	32C/	.	.	32e- 32A-\	.	32a-/	32a-/	.	.	.	.	.	.	.	.	.	.	.	.	.	.	.
.	32C/	.	.	32e- 32A-\	.	32a-/	32a-/	.	.	.	.	.	.	.	.	.	.	.	.	.	.	.
.	32C/	.	.	32e- 32A-\	.	32a-/	32a-/	.	.	.	.	.	.	.	.	.	.	.	.	.	.	.
.	32C/	.	.	32e- 32A-\	.	32a-/	32a-/	.	.	.	.	.	.	.	.	.	.	.	.	.	.	.
.	32C/	.	.	32e- 32A-\	.	32a-/	32a-/	.	.	.	.	.	.	.	.	.	.	.	.	.	.	.
.	32C/	.	.	32e- 32A-\	.	32a-/	32a-/	.	.	.	.	.	.	.	.	.	.	.	.	.	.	.
.	32C/	.	.	32e- 32A-\	.	32a-/JJJ	32a-/JJJ	.	.	.	.	.	.	.	.	.	.	.	.	.	.	.
.	32C/	2rGG	.	32e- 32A-\	.	32a-/LLL	32ee-\LLL	.	2C/	-bri-	.	2e-/	2A-\	.	.	2ee-/	2a-\	-bri-	.	4C/ 4CC/	4ee- 4a- 4e-/	.
.	32C/	.	.	32e- 32A-\	.	32a-/	32ee-\	.	.	.	.	.	.	.	.	.	.	.	.	.	.	.
.	32C/	.	.	32e- 32A-\	.	32a-/	32ee-\	.	.	.	.	.	.	.	.	.	.	.	.	.	.	.
.	32C/	.	.	32e- 32A-\	.	32a-/	32ee-\	.	.	.	.	.	.	.	.	.	.	.	.	.	.	.
.	32C/	.	.	32e- 32A-\	.	32a-/	32ee-\	.	.	.	.	.	.	.	.	.	.	.	.	.	.	.
.	32C/	.	.	32e- 32A-\	.	32a-/	32ee-\	.	.	.	.	.	.	.	.	.	.	.	.	.	.	.
.	32C/	.	.	32e- 32A-\	.	32a-/	32ee-\	.	.	.	.	.	.	.	.	.	.	.	.	.	.	.
.	32C/	.	.	32e- 32A-\	.	32a-/	32ee-\	.	.	.	.	.	.	.	.	.	.	.	.	.	.	.
.	32C/	.	.	32e- 32A-\	.	32a-/	32ee-\	.	.	.	.	.	.	.	.	.	.	.	.	4r	4r	.
.	32C/	.	.	32e- 32A-\	.	32a-/	32ee-\	.	.	.	.	.	.	.	.	.	.	.	.	.	.	.
.	32C/	.	.	32e- 32A-\	.	32a-/	32ee-\	.	.	.	.	.	.	.	.	.	.	.	.	.	.	.
.	32C/	.	.	32e- 32A-\	.	32a-/	32ee-\	.	.	.	.	.	.	.	.	.	.	.	.	.	.	.
.	32C/	.	.	32e- 32A-\	.	32a-/	32ee-\	.	.	.	.	.	.	.	.	.	.	.	.	.	.	.
.	32C/	.	.	32e- 32A-\	.	32a-/	32ee-\	.	.	.	.	.	.	.	.	.	.	.	.	.	.	.
.	32C/	.	.	32e- 32A-\	.	32a-/	32ee-\	.	.	.	.	.	.	.	.	.	.	.	.	.	.	.
.	32C/JJJ	.	.	32e-JJJ 32A-\	.	32a-/JJJ	32ee-\JJJ	.	.	.	.	.	.	.	.	.	.	.	.	.	.	.
.	32BB-/LLL	4BB-\	.	32e-LLL 32B-/	.	32g/LLL	32dd-\LLL	.	2BB-/	-e-	.	2d-/	2G\	.	.	2dd-/	2g\	-e-	.	4BB-/ 4BBB-/	4dd- 4g 4e-/	.
.	32BB-/	.	.	32e- 32B-/	.	32g/	32dd-\	.	.	.	.	.	.	.	.	.	.	.	.	.	.	.
.	32BB-/	.	.	32e- 32B-/	.	32g/	32dd-\	.	.	.	.	.	.	.	.	.	.	.	.	.	.	.
.	32BB-/	.	.	32e- 32B-/	.	32g/	32dd-\	.	.	.	.	.	.	.	.	.	.	.	.	.	.	.
.	32BB-/	.	.	32e- 32B-/	.	32g/	32dd-\	.	.	.	.	.	.	.	.	.	.	.	.	.	.	.
.	32BB-/	.	.	32e- 32B-/	.	32g/	32dd-\	.	.	.	.	.	.	.	.	.	.	.	.	.	.	.
.	32BB-/	.	.	32e- 32B-/	.	32g/	32dd-\	.	.	.	.	.	.	.	.	.	.	.	.	.	.	.
.	32BB-/	.	.	32e- 32B-/	.	32g/	32dd-\	.	.	.	.	.	.	.	.	.	.	.	.	.	.	.
.	32BB-/	4rGG	.	32e- 32B-/	.	32g/	32dd-\	.	.	.	.	.	.	.	.	.	.	.	.	4r	4r	.
.	32BB-/	.	.	32e- 32B-/	.	32g/	32dd-\	.	.	.	.	.	.	.	.	.	.	.	.	.	.	.
.	32BB-/	.	.	32e- 32B-/	.	32g/	32dd-\	.	.	.	.	.	.	.	.	.	.	.	.	.	.	.
.	32BB-/	.	.	32e- 32B-/	.	32g/	32dd-\	.	.	.	.	.	.	.	.	.	.	.	.	.	.	.
.	32BB-/	.	.	32e- 32B-/	.	32g/	32dd-\	.	.	.	.	.	.	.	.	.	.	.	.	.	.	.
.	32BB-/	.	.	32e- 32B-/	.	32g/	32dd-\	.	.	.	.	.	.	.	.	.	.	.	.	.	.	.
.	32BB-/	.	.	32e- 32B-/	.	32g/	32dd-\	.	.	.	.	.	.	.	.	.	.	.	.	.	.	.
.	32BB-/JJJ	.	.	32e-JJJ 32B-/	.	32g/JJJ	32dd-\JJJ	.	.	.	.	.	.	.	.	.	.	.	.	.	.	.
.	32AA-/LLL	4AA-\	.	32e-LLL 32A-/	.	32a-/LLL	32cc\LLL	.	2AA-/	-lis	.	2c/	2A-\	.	.	2cc/	2a-\	-lis	.	4AA-/ 4AAA-/	4cc 4a- 4e-/	.
.	32AA-/	.	.	32e- 32A-/	.	32a-/	32cc\	.	.	.	.	.	.	.	.	.	.	.	.	.	.	.
.	32AA-/	.	.	32e- 32A-/	.	32a-/	32cc\	.	.	.	.	.	.	.	.	.	.	.	.	.	.	.
.	32AA-/	.	.	32e- 32A-/	.	32a-/	32cc\	.	.	.	.	.	.	.	.	.	.	.	.	.	.	.
.	32AA-/	.	.	32e- 32A-/	.	32a-/	32cc\	.	.	.	.	.	.	.	.	.	.	.	.	.	.	.
.	32AA-/	.	.	32e- 32A-/	.	32a-/	32cc\	.	.	.	.	.	.	.	.	.	.	.	.	.	.	.
.	32AA-/	.	.	32e- 32A-/	.	32a-/	32cc\	.	.	.	.	.	.	.	.	.	.	.	.	.	.	.
.	32AA-/	.	.	32e- 32A-/	.	32a-/	32cc\	.	.	.	.	.	.	.	.	.	.	.	.	.	.	.
.	32AA-/	4rGG	.	32e- 32A-/	.	32a-/	32cc\	.	.	.	.	.	.	.	.	.	.	.	.	4r	4r	.
.	32AA-/	.	.	32e- 32A-/	.	32a-/	32cc\	.	.	.	.	.	.	.	.	.	.	.	.	.	.	.
.	32AA-/	.	.	32e- 32A-/	.	32a-/	32cc\	.	.	.	.	.	.	.	.	.	.	.	.	.	.	.
.	32AA-/	.	.	32e- 32A-/	.	32a-/	32cc\	.	.	.	.	.	.	.	.	.	.	.	.	.	.	.
.	32AA-/	.	.	32e- 32A-/	.	32a-/	32cc\	.	.	.	.	.	.	.	.	.	.	.	.	.	.	.
.	32AA-/	.	.	32e- 32A-/	.	32a-/	32cc\	.	.	.	.	.	.	.	.	.	.	.	.	.	.	.
.	32AA-/	.	.	32e- 32A-/	.	32a-/	32cc\	.	.	.	.	.	.	.	.	.	.	.	.	.	.	.
.	32AA-/JJJ	.	.	32e-JJJ 32A-/	.	32a-/JJJ	32cc\JJJ	.	.	.	.	.	.	.	.	.	.	.	.	.	.	.
*	*	*	*	*	*	*	*	*	*	*	*	*v	*v	*	*	*	*	*	*	*	*	*
*	*	*	*	*	*	*	*	*	*	*	*	*	*	*	*v	*v	*	*	*	*	*
=20	=20	=20	=20	=20	=20	=20	=20	=20	=20	=20	=20	=20	=20	=20	=20	=20	=20	=20	=20	=20
0ryy	32E-/LLL	4E-\	.	32e-LLL 32A-\;>	.	32a-/LLL;>	32ccLLL 32e-/;>	.	1E-;>	o-	.	1c 1A-;>	.	.	1cc 1a-;>	o-	.	2A- 2E- 2C 2AA-\	2cc 2a- 2e- 2c/	.
.	32E-/	.	.	32e- 32A-\	.	32a-/	32cc 32e-/	.	.	.	.	.	.	.	.	.	.	.	.	.
.	32E-/	.	.	32e- 32A-\	.	32a-/	32cc 32e-/	.	.	.	.	.	.	.	.	.	.	.	.	.
.	32E-/	.	.	32e- 32A-\	.	32a-/	32cc 32e-/	.	.	.	.	.	.	.	.	.	.	.	.	.
.	32E-/	.	.	32e- 32A-\	.	32a-/	32cc 32e-/	.	.	.	.	.	.	.	.	.	.	.	.	.
.	32E-/	.	.	32e- 32A-\	.	32a-/	32cc 32e-/	.	.	.	.	.	.	.	.	.	.	.	.	.
.	32E-/	.	.	32e- 32A-\	.	32a-/	32cc 32e-/	.	.	.	.	.	.	.	.	.	.	.	.	.
.	32E-/	.	.	32e- 32A-\	.	32a-/	32cc 32e-/	.	.	.	.	.	.	.	.	.	.	.	.	.
.	32E-/	4rGG;>	.	32e- 32A-\	.	32a-/	32cc 32e-/	.	.	.	.	.	.	.	.	.	.	.	.	.
.	32E-/	.	.	32e- 32A-\	.	32a-/	32cc 32e-/	.	.	.	.	.	.	.	.	.	.	.	.	.
.	32E-/	.	.	32e- 32A-\	.	32a-/	32cc 32e-/	.	.	.	.	.	.	.	.	.	.	.	.	.
.	32E-/	.	.	32e- 32A-\	.	32a-/	32cc 32e-/	.	.	.	.	.	.	.	.	.	.	.	.	.
.	32E-/	.	.	32e- 32A-\	.	32a-/	32cc 32e-/	.	.	.	.	.	.	.	.	.	.	.	.	.
.	32E-/	.	.	32e- 32A-\	.	32a-/	32cc 32e-/	.	.	.	.	.	.	.	.	.	.	.	.	.
.	32E-/	.	.	32e- 32A-\	.	32a-/	32cc 32e-/	.	.	.	.	.	.	.	.	.	.	.	.	.
.	32E-/	.	.	32e- 32A-\	.	32a-/	32cc 32e-/	.	.	.	.	.	.	.	.	.	.	.	.	.
.	32E-/	2rGG;<	.	32e- 32A-\	.	32a-/	32cc 32e-/	.	.	.	.	.	.	.	.	.	.	2r;>	2r;>	.
.	32E-/	.	.	32e- 32A-\	.	32a-/	32cc 32e-/	.	.	.	.	.	.	.	.	.	.	.	.	.
.	32E-/	.	.	32e- 32A-\	.	32a-/	32cc 32e-/	.	.	.	.	.	.	.	.	.	.	.	.	.
.	32E-/	.	.	32e- 32A-\	.	32a-/	32cc 32e-/	.	.	.	.	.	.	.	.	.	.	.	.	.
.	32E-/	.	.	32e- 32A-\	.	32a-/	32cc 32e-/	.	.	.	.	.	.	.	.	.	.	.	.	.
.	32E-/	.	.	32e- 32A-\	.	32a-/	32cc 32e-/	.	.	.	.	.	.	.	.	.	.	.	.	.
.	32E-/	.	.	32e- 32A-\	.	32a-/	32cc 32e-/	.	.	.	.	.	.	.	.	.	.	.	.	.
.	32E-/	.	.	32e- 32A-\	.	32a-/	32cc 32e-/	.	.	.	.	.	.	.	.	.	.	.	.	.
.	32E-/	.	.	32e- 32A-\	.	32a-/	32cc 32e-/	.	.	.	.	.	.	.	.	.	.	.	.	.
.	32E-/	.	.	32e- 32A-\	.	32a-/	32cc 32e-/	.	.	.	.	.	.	.	.	.	.	.	.	.
.	32E-/	.	.	32e- 32A-\	.	32a-/	32cc 32e-/	.	.	.	.	.	.	.	.	.	.	.	.	.
.	32E-/	.	.	32e- 32A-\	.	32a-/	32cc 32e-/	.	.	.	.	.	.	.	.	.	.	.	.	.
.	32E-/	.	.	32e- 32A-\	.	32a-/	32cc 32e-/	.	.	.	.	.	.	.	.	.	.	.	.	.
.	32E-/	.	.	32e- 32A-\	.	32a-/	32cc 32e-/	.	.	.	.	.	.	.	.	.	.	.	.	.
.	32E-/	.	.	32e- 32A-\	.	32a-/	32cc 32e-/	.	.	.	.	.	.	.	.	.	.	.	.	.
.	32E-;/JJJ	.	.	32e-JJJ 32A-;\	.	32a-;/JJJ	32ccJJJ 32e-;/	.	.	.	.	.	.	.	.	.	.	.	.	.
*	*	*	*	*	*	*	*	*	*	*	*	*	*	*	*	*	*	*Xtuplet	*Xbracket	*
*	*	*	*	*	*	*	*	*	*	*	*	*	*	*	*	*	*	*rscale:2	*rscale:2	*
!	!	!	!	!	!	!	!	!	!	!	!	!	!	!	!	!	!	!	!LO:TX:a:t=P:problem=triole bez ramek	!
.	32E-/LLL	4E-\	.	32e-LLL 32G/	.	32g/LLL	32b-LLL 32e-/	.	1E-;>	-ra	.	1B- 1G;>	.	.	1b- 1g;>	-ra	.	12E-\	(>12e-/	.
.	32E-/	.	.	32e- 32G/	.	32g/	32b- 32e-/	.	.	.	.	.	.	.	.	.	.	.	.	.
.	32E-/	.	.	32e- 32G/	.	32g/	32b- 32e-/	.	.	.	.	.	.	.	.	.	.	.	.	.
.	.	.	.	.	.	.	.	.	.	.	.	.	.	.	.	.	.	12G\	12g/	.
.	32E-/	.	.	32e- 32G/	.	32g/	32b- 32e-/	.	.	.	.	.	.	.	.	.	.	.	.	.
.	32E-/	.	.	32e- 32G/	.	32g/	32b- 32e-/	.	.	.	.	.	.	.	.	.	.	.	.	.
.	32E-/	.	.	32e- 32G/	.	32g/	32b- 32e-/	.	.	.	.	.	.	.	.	.	.	.	.	.
.	.	.	.	.	.	.	.	.	.	.	.	.	.	.	.	.	.	12B-\	12b-/	.
.	32E-/	.	.	32e- 32G/	.	32g/	32b- 32e-/	.	.	.	.	.	.	.	.	.	.	.	.	.
.	32E-/	.	.	32e- 32G/	.	32g/	32b- 32e-/	.	.	.	.	.	.	.	.	.	.	.	.	.
.	32E-/	4rGG	.	32e- 32G/	.	32g/	32b- 32e-/	.	.	.	.	.	.	.	.	.	.	12e->\	12ee-/	.
.	32E-/	.	.	32e- 32G/	.	32g/	32b- 32e-/	.	.	.	.	.	.	.	.	.	.	.	.	.
.	32E-/	.	.	32e- 32G/	.	32g/	32b- 32e-/	.	.	.	.	.	.	.	.	.	.	.	.	.
.	.	.	.	.	.	.	.	.	.	.	.	.	.	.	.	.	.	12g>\	12gg/	.
.	32E-/	.	.	32e- 32G/	.	32g/	32b- 32e-/	.	.	.	.	.	.	.	.	.	.	.	.	.
.	32E-/	.	.	32e- 32G/	.	32g/	32b- 32e-/	.	.	.	.	.	.	.	.	.	.	.	.	.
.	32E-/	.	.	32e- 32G/	.	32g/	32b- 32e-/	.	.	.	.	.	.	.	.	.	.	.	.	.
.	.	.	.	.	.	.	.	.	.	.	.	.	.	.	.	.	.	12b->\	12bb-/)	.
.	32E-/	.	.	32e- 32G/	.	32g/	32b- 32e-/	.	.	.	.	.	.	.	.	.	.	.	.	.
.	32E-/JJJ	.	.	32e-JJJ 32G/	.	32g/JJJ	32b-JJJ 32e-/	.	.	.	.	.	.	.	.	.	.	.	.	.
*	*	*	*	*	*	*	*	*	*	*	*	*	*	*	*	*	*	*rscale:1	*rscale:1	*
.	2E-;>/	2rGG;<	.	2e- 2G;>/	.	2g;>/	2b- 2e-;>/	.	.	.	.	.	.	.	.	.	.	2ee-> 2b-> 2g> 2e->\	2eee- 2bb- 2gg;>/	.
*	*v	*v	*	*	*	*	*	*	*	*	*	*	*	*	*	*	*	*	*	*
!!LO:LB:g=original
=21	=21	=21	=21	=21	=21	=21	=21	=21	=21	=21	=21	=21	=21	=21	=21	=21	=21	=21	=21
*	*	*	*	*	*	*	*	*	*	*	*^	*	*	*	*	*	*	*	*
!	!	!	!	!	!	!	!	!	!	!	!	!	!	!LO:DY:b:rj	!	!	!	!	!	!LO:DY:b:rj
0ryy	1r	.	1r	.	1r	1r	.	2AA-/	Fun-	.	2c/	2A-\	Fun-	p	1r	.	.	4A- 4E- 4C 4AA-\	4cc 4a- 4e- 4c/	p
.	.	.	.	.	.	.	.	.	.	.	.	.	.	.	.	.	.	4r	4r	.
.	.	.	.	.	.	.	.	2AA-/	-da	.	2c/	2A-\	-da	.	.	.	.	4A- 4E- 4C 4AA-\	4cc 4a- 4e- 4c/	.
.	.	.	.	.	.	.	.	.	.	.	.	.	.	.	.	.	.	4r	4r	.
.	1r	.	1r	.	1r	1r	.	2AA-/	nos	.	2c/	2A-\	nos	.	1r	.	.	4A- 4E- 4C 4AA-\	4cc 4a- 4e- 4c/	.
.	.	.	.	.	.	.	.	.	.	.	.	.	.	.	.	.	.	4r	4r	.
.	.	.	.	.	.	.	.	2AA-/	in	.	2c/	2A-\	in	.	.	.	.	4A- 4E- 4C 4AA-\	4cc 4a- 4e- 4c/	.
.	.	.	.	.	.	.	.	.	.	.	.	.	.	.	.	.	.	4r	4r	.
*	*	*	*	*	*	*	*	*	*	*	*v	*v	*	*	*	*	*	*	*	*
=22	=22	=22	=22	=22	=22	=22	=22	=22	=22	=22	=22	=22	=22	=22	=22	=22	=22	=22	=22
0ryy	1r	.	1r	.	1r	1r	.	1E-	pa-	.	1B- 1G	pa-	.	1r	.	.	4E- 4BB- 4GG 4EE-/	4b- 4g 4e- 4B-/	.
.	.	.	.	.	.	.	.	.	.	.	.	.	.	.	.	.	4r	4r	.
.	.	.	.	.	.	.	.	.	.	.	.	.	.	.	.	.	4e- 4B- 4G 4E-\	4bb- 4gg 4ee- 4b-\	.
.	.	.	.	.	.	.	.	.	.	.	.	.	.	.	.	.	4r	4r	.
.	1r	.	1r	.	1r	1r	.	1AA-	-ce,	.	1c 1A-	-ce,	.	1r	.	.	4A- 4E- 4C 4AA-\	4cc 4a- 4e- 4c/	.
.	.	.	.	.	.	.	.	.	.	.	.	.	.	.	.	.	4r	4r	.
.	.	.	.	.	.	.	.	.	.	.	.	.	.	.	.	.	4a-> 4e-> 4c 4A-\	4ccc 4aa- 4ee- 4cc/	.
.	.	.	.	.	.	.	.	.	.	.	.	.	.	.	.	.	4r	4r	.
=23	=23	=23	=23	=23	=23	=23	=23	=23	=23	=23	=23	=23	=23	=23	=23	=23	=23	=23	=23
*	*	*	*	*	*	*	*	*	*	*	*^	*	*	*	*	*	*	*	*
0ryy	1r	.	1r	.	1r	1r	.	2BB-/	Mu-	.	2e-/	2F\	Mu-	.	1r	.	.	4B- 4BB-\	4ee- 4b- 4f/	.
.	.	.	.	.	.	.	.	.	.	.	.	.	.	.	.	.	.	4r	4r	.
.	.	.	.	.	.	.	.	2BB-/	-tans	.	2d-/	2G\	-tans	.	.	.	.	4B- 4BB-\	4dd- 4b- 4e-/	.
.	.	.	.	.	.	.	.	.	.	.	.	.	.	.	.	.	.	4r	4r	.
.	1r	.	1r	.	1r	1r	.	2AA-/	Hae-	.	2c/	2G\	Hae-	.	1r	.	.	4A- 4AA-/	4cc 4a- 4e-/	.
.	.	.	.	.	.	.	.	.	.	.	.	.	.	.	.	.	.	4r	4r	.
.	.	.	.	.	.	.	.	2E-\	-ve	.	2B-/	2G\	-ve	.	.	.	.	4B- 4G 4E-\	4b- 4g 4e-/	.
.	.	.	.	.	.	.	.	.	.	.	.	.	.	.	.	.	.	4r	4r	.
*	*	*	*	*	*	*	*	*	*	*	*v	*v	*	*	*	*	*	*	*	*
=24	=24	=24	=24	=24	=24	=24	=24	=24	=24	=24	=24	=24	=24	=24	=24	=24	=24	=24	=24
0ryy	1r	.	1r	.	1r	1r	.	1AA-	no-	.	1c 1A-	no-	.	1r	.	.	4A- 4E- 4C 4AA-\	4cc 4a- 4e-/	.
.	.	.	.	.	.	.	.	.	.	.	.	.	.	.	.	.	4r	4r	.
.	.	.	.	.	.	.	.	.	.	.	.	.	.	.	.	.	4A- 4E- 4C 4AA-\	4ee- 4cc 4a- 4e-/	.
.	.	.	.	.	.	.	.	.	.	.	.	.	.	.	.	.	4r	4r	.
.	1r	.	1r	.	1r	1r	.	1C	-men.	.	1e- 1A-	-men.	.	1r	.	.	4A- 4E- 4C 4AA-\	4cc 4a- 4e-/	.
.	.	.	.	.	.	.	.	.	.	.	.	.	.	.	.	.	4r	4r	.
.	.	.	.	.	.	.	.	.	.	.	.	.	.	.	.	.	4A- 4E- 4C 4AA-\	4ee- 4cc 4a- 4e-/	.
.	.	.	.	.	.	.	.	.	.	.	.	.	.	.	.	.	4r	4r	.
!!LO:PB:g=original
=25	=25	=25	=25	=25	=25	=25	=25	=25	=25	=25	=25	=25	=25	=25	=25	=25	=25	=25	=25
*	*^	*	*	*	*	*	*	*	*	*	*^	*	*	*^	*	*	*	*	*
!	!	!	!LO:DY:b:rj	!	!LO:DY:b:rj	!	!	!LO:DY:b:rj	!	!	!	!	!	!	!	!	!	!	!LO:DY:b:rj	!	!	!
0ryy	32BB-/LLL	4BB-\	f	32B-/LLL	f	32f/LLL	32ee-LLL 32f/	f	2BB-/	Mu-	.	2e-/	2F\	.	.	2ee-/	2f/	Mu-	f	4B- 4BB-\	4r	.
.	32BB-/	.	.	32B-/	.	32f/	32ee- 32f/	.	.	.	.	.	.	.	.	.	.	.	.	.	.	.
.	32BB-/	.	.	32B-/	.	32f/	32ee- 32f/	.	.	.	.	.	.	.	.	.	.	.	.	.	.	.
.	32BB-/	.	.	32B-/	.	32f/	32ee- 32f/	.	.	.	.	.	.	.	.	.	.	.	.	.	.	.
.	32BB-/	.	.	32B-/	.	32f/	32ee- 32f/	.	.	.	.	.	.	.	.	.	.	.	.	.	.	.
.	32BB-/	.	.	32B-/	.	32f/	32ee- 32f/	.	.	.	.	.	.	.	.	.	.	.	.	.	.	.
.	32BB-/	.	.	32B-/	.	32f/	32ee- 32f/	.	.	.	.	.	.	.	.	.	.	.	.	.	.	.
.	32BB-/	.	.	32B-/	.	32f/	32ee- 32f/	.	.	.	.	.	.	.	.	.	.	.	.	.	.	.
.	32BB-/	4rGG	.	32B-/	.	32f/	32ee- 32f/	.	.	.	.	.	.	.	.	.	.	.	.	4r	4ee- 4b- 4f/	.
.	32BB-/	.	.	32B-/	.	32f/	32ee- 32f/	.	.	.	.	.	.	.	.	.	.	.	.	.	.	.
.	32BB-/	.	.	32B-/	.	32f/	32ee- 32f/	.	.	.	.	.	.	.	.	.	.	.	.	.	.	.
.	32BB-/	.	.	32B-/	.	32f/	32ee- 32f/	.	.	.	.	.	.	.	.	.	.	.	.	.	.	.
.	32BB-/	.	.	32B-/	.	32f/	32ee- 32f/	.	.	.	.	.	.	.	.	.	.	.	.	.	.	.
.	32BB-/	.	.	32B-/	.	32f/	32ee- 32f/	.	.	.	.	.	.	.	.	.	.	.	.	.	.	.
.	32BB-/	.	.	32B-/	.	32f/	32ee- 32f/	.	.	.	.	.	.	.	.	.	.	.	.	.	.	.
.	32BB-/	.	.	32B-/	.	32f/	32ee-JJJ 32f/	.	.	.	.	.	.	.	.	.	.	.	.	.	.	.
.	32BB-/	2rGG	.	32B-/	.	32f/	32dd-LLL 32f/	.	2BB-/	-tans	.	2d-/	2F\	.	.	2dd-/	2f/	-tans	.	4B- 4BB-\	4r	.
.	32BB-/	.	.	32B-/	.	32f/	32dd- 32f/	.	.	.	.	.	.	.	.	.	.	.	.	.	.	.
.	32BB-/	.	.	32B-/	.	32f/	32dd- 32f/	.	.	.	.	.	.	.	.	.	.	.	.	.	.	.
.	32BB-/	.	.	32B-/	.	32f/	32dd- 32f/	.	.	.	.	.	.	.	.	.	.	.	.	.	.	.
.	32BB-/	.	.	32B-/	.	32f/	32dd- 32f/	.	.	.	.	.	.	.	.	.	.	.	.	.	.	.
.	32BB-/	.	.	32B-/	.	32f/	32dd- 32f/	.	.	.	.	.	.	.	.	.	.	.	.	.	.	.
.	32BB-/	.	.	32B-/	.	32f/	32dd- 32f/	.	.	.	.	.	.	.	.	.	.	.	.	.	.	.
.	32BB-/	.	.	32B-/	.	32f/	32dd- 32f/	.	.	.	.	.	.	.	.	.	.	.	.	.	.	.
.	32BB-/	.	.	32B-/	.	32f/	32dd- 32f/	.	.	.	.	.	.	.	.	.	.	.	.	4r	4dd- 4b- 4f/	.
.	32BB-/	.	.	32B-/	.	32f/	32dd- 32f/	.	.	.	.	.	.	.	.	.	.	.	.	.	.	.
.	32BB-/	.	.	32B-/	.	32f/	32dd- 32f/	.	.	.	.	.	.	.	.	.	.	.	.	.	.	.
.	32BB-/	.	.	32B-/	.	32f/	32dd- 32f/	.	.	.	.	.	.	.	.	.	.	.	.	.	.	.
.	32BB-/	.	.	32B-/	.	32f/	32dd- 32f/	.	.	.	.	.	.	.	.	.	.	.	.	.	.	.
.	32BB-/	.	.	32B-/	.	32f/	32dd- 32f/	.	.	.	.	.	.	.	.	.	.	.	.	.	.	.
.	32BB-/	.	.	32B-/	.	32f/	32dd- 32f/	.	.	.	.	.	.	.	.	.	.	.	.	.	.	.
.	32BB-/JJJ	.	.	32B-/JJJ	.	32f/JJJ	32dd-JJJ 32f/	.	.	.	.	.	.	.	.	.	.	.	.	.	.	.
.	32E-/LLL	4E-\	.	32e-\LLL	.	32a-/LLL	32ccLLL 32e-/	.	2E-\	Hae-	.	2c/	2A-\	.	.	2cc/	2a-\	Hae-	.	4c 4A- 4E-\	4r	.
.	32E-/	.	.	32e-\	.	32a-/	32cc 32e-/	.	.	.	.	.	.	.	.	.	.	.	.	.	.	.
.	32E-/	.	.	32e-\	.	32a-/	32cc 32e-/	.	.	.	.	.	.	.	.	.	.	.	.	.	.	.
.	32E-/	.	.	32e-\	.	32a-/	32cc 32e-/	.	.	.	.	.	.	.	.	.	.	.	.	.	.	.
.	32E-/	.	.	32e-\	.	32a-/	32cc 32e-/	.	.	.	.	.	.	.	.	.	.	.	.	.	.	.
.	32E-/	.	.	32e-\	.	32a-/	32cc 32e-/	.	.	.	.	.	.	.	.	.	.	.	.	.	.	.
.	32E-/	.	.	32e-\	.	32a-/	32cc 32e-/	.	.	.	.	.	.	.	.	.	.	.	.	.	.	.
.	32E-/	.	.	32e-\	.	32a-/	32cc 32e-/	.	.	.	.	.	.	.	.	.	.	.	.	.	.	.
.	32E-/	4rGG	.	32e-\	.	32a-/	32cc 32e-/	.	.	.	.	.	.	.	.	.	.	.	.	4r	4cc 4a- 4e-/	.
.	32E-/	.	.	32e-\	.	32a-/	32cc 32e-/	.	.	.	.	.	.	.	.	.	.	.	.	.	.	.
.	32E-/	.	.	32e-\	.	32a-/	32cc 32e-/	.	.	.	.	.	.	.	.	.	.	.	.	.	.	.
.	32E-/	.	.	32e-\	.	32a-/	32cc 32e-/	.	.	.	.	.	.	.	.	.	.	.	.	.	.	.
.	32E-/	.	.	32e-\	.	32a-/	32cc 32e-/	.	.	.	.	.	.	.	.	.	.	.	.	.	.	.
.	32E-/	.	.	32e-\	.	32a-/	32cc 32e-/	.	.	.	.	.	.	.	.	.	.	.	.	.	.	.
.	32E-/	.	.	32e-\	.	32a-/	32cc 32e-/	.	.	.	.	.	.	.	.	.	.	.	.	.	.	.
.	32E-/	.	.	32e-\	.	32a-/JJJ	32ccJJJ 32e-/	.	.	.	.	.	.	.	.	.	.	.	.	.	.	.
.	32E-/	4E-\	.	32e-\	.	32g/LLL	32b-LLL 32e-/	.	2E-\	-ve	.	2B-/	2G\	.	.	2b-/	2g\	-ve	.	4B- 4G 4E-\	4r	.
.	32E-/	.	.	32e-\	.	32g/	32b- 32e-/	.	.	.	.	.	.	.	.	.	.	.	.	.	.	.
.	32E-/	.	.	32e-\	.	32g/	32b- 32e-/	.	.	.	.	.	.	.	.	.	.	.	.	.	.	.
.	32E-/	.	.	32e-\	.	32g/	32b- 32e-/	.	.	.	.	.	.	.	.	.	.	.	.	.	.	.
.	32E-/	.	.	32e-\	.	32g/	32b- 32e-/	.	.	.	.	.	.	.	.	.	.	.	.	.	.	.
.	32E-/	.	.	32e-\	.	32g/	32b- 32e-/	.	.	.	.	.	.	.	.	.	.	.	.	.	.	.
.	32E-/	.	.	32e-\	.	32g/	32b- 32e-/	.	.	.	.	.	.	.	.	.	.	.	.	.	.	.
.	32E-/	.	.	32e-\	.	32g/	32b- 32e-/	.	.	.	.	.	.	.	.	.	.	.	.	.	.	.
.	32E-/	4rGG	.	32e-\	.	32g/	32b- 32e-/	.	.	.	.	.	.	.	.	.	.	.	.	4r	4b- 4g 4e-/	.
.	32E-/	.	.	32e-\	.	32g/	32b- 32e-/	.	.	.	.	.	.	.	.	.	.	.	.	.	.	.
.	32E-/	.	.	32e-\	.	32g/	32b- 32e-/	.	.	.	.	.	.	.	.	.	.	.	.	.	.	.
.	32E-/	.	.	32e-\	.	32g/	32b- 32e-/	.	.	.	.	.	.	.	.	.	.	.	.	.	.	.
.	32E-/	.	.	32e-\	.	32g/	32b- 32e-/	.	.	.	.	.	.	.	.	.	.	.	.	.	.	.
.	32E-/	.	.	32e-\	.	32g/	32b- 32e-/	.	.	.	.	.	.	.	.	.	.	.	.	.	.	.
.	32E-/	.	.	32e-\	.	32g/	32b- 32e-/	.	.	.	.	.	.	.	.	.	.	.	.	.	.	.
.	32E-/JJJ	.	.	32e-\JJJ	.	32g/JJJ	32b-JJJ 32e-/	.	.	.	.	.	.	.	.	.	.	.	.	.	.	.
*	*	*	*	*	*	*	*	*	*	*	*	*v	*v	*	*	*	*	*	*	*	*	*
*	*	*	*	*	*	*	*	*	*	*	*	*	*	*	*v	*v	*	*	*	*	*
=26	=26	=26	=26	=26	=26	=26	=26	=26	=26	=26	=26	=26	=26	=26	=26	=26	=26	=26	=26	=26
0ryy	32E-/LLL	4E-\	.	32e-\LLL	.	32g/LLL	32b-LLL 32e-/	.	1E-	no-	.	1B- 1G	.	.	1b- 1g	no-	.	4B- 4G 4E-\	4r	.
.	32E-/	.	.	32e-\	.	32g/	32b- 32e-/	.	.	.	.	.	.	.	.	.	.	.	.	.
.	32E-/	.	.	32e-\	.	32g/	32b- 32e-/	.	.	.	.	.	.	.	.	.	.	.	.	.
.	32E-/	.	.	32e-\	.	32g/	32b- 32e-/	.	.	.	.	.	.	.	.	.	.	.	.	.
.	32E-/	.	.	32e-\	.	32g/	32b- 32e-/	.	.	.	.	.	.	.	.	.	.	.	.	.
.	32E-/	.	.	32e-\	.	32g/	32b- 32e-/	.	.	.	.	.	.	.	.	.	.	.	.	.
.	32E-/	.	.	32e-\	.	32g/	32b- 32e-/	.	.	.	.	.	.	.	.	.	.	.	.	.
.	32E-/	.	.	32e-\	.	32g/	32b- 32e-/	.	.	.	.	.	.	.	.	.	.	.	.	.
.	32E-/	4rGG	.	32e-\	.	32g/	32b- 32e-/	.	.	.	.	.	.	.	.	.	.	4r	4b- 4g 4e-/	.
.	32E-/	.	.	32e-\	.	32g/	32b- 32e-/	.	.	.	.	.	.	.	.	.	.	.	.	.
.	32E-/	.	.	32e-\	.	32g/	32b- 32e-/	.	.	.	.	.	.	.	.	.	.	.	.	.
.	32E-/	.	.	32e-\	.	32g/	32b- 32e-/	.	.	.	.	.	.	.	.	.	.	.	.	.
.	32E-/	.	.	32e-\	.	32g/	32b- 32e-/	.	.	.	.	.	.	.	.	.	.	.	.	.
.	32E-/	.	.	32e-\	.	32g/	32b- 32e-/	.	.	.	.	.	.	.	.	.	.	.	.	.
.	32E-/	.	.	32e-\	.	32g/	32b- 32e-/	.	.	.	.	.	.	.	.	.	.	.	.	.
.	32E-/	.	.	32e-\	.	32g/	32b- 32e-/	.	.	.	.	.	.	.	.	.	.	.	.	.
.	32E-/	2rGG	.	32e-\	.	32g/	32b- 32e-/	.	.	.	.	.	.	.	.	.	.	4B- 4G 4E-\	4r	.
.	32E-/	.	.	32e-\	.	32g/	32b- 32e-/	.	.	.	.	.	.	.	.	.	.	.	.	.
.	32E-/	.	.	32e-\	.	32g/	32b- 32e-/	.	.	.	.	.	.	.	.	.	.	.	.	.
.	32E-/	.	.	32e-\	.	32g/	32b- 32e-/	.	.	.	.	.	.	.	.	.	.	.	.	.
.	32E-/	.	.	32e-\	.	32g/	32b- 32e-/	.	.	.	.	.	.	.	.	.	.	.	.	.
.	32E-/	.	.	32e-\	.	32g/	32b- 32e-/	.	.	.	.	.	.	.	.	.	.	.	.	.
.	32E-/	.	.	32e-\	.	32g/	32b- 32e-/	.	.	.	.	.	.	.	.	.	.	.	.	.
.	32E-/	.	.	32e-\	.	32g/	32b- 32e-/	.	.	.	.	.	.	.	.	.	.	.	.	.
.	32E-/	.	.	32e-\	.	32g/	32b- 32e-/	.	.	.	.	.	.	.	.	.	.	4r	4b- 4g 4e-/	.
.	32E-/	.	.	32e-\	.	32g/	32b- 32e-/	.	.	.	.	.	.	.	.	.	.	.	.	.
.	32E-/	.	.	32e-\	.	32g/	32b- 32e-/	.	.	.	.	.	.	.	.	.	.	.	.	.
.	32E-/	.	.	32e-\	.	32g/	32b- 32e-/	.	.	.	.	.	.	.	.	.	.	.	.	.
.	32E-/	.	.	32e-\	.	32g/	32b- 32e-/	.	.	.	.	.	.	.	.	.	.	.	.	.
.	32E-/	.	.	32e-\	.	32g/	32b- 32e-/	.	.	.	.	.	.	.	.	.	.	.	.	.
.	32E-/	.	.	32e-\	.	32g/	32b- 32e-/	.	.	.	.	.	.	.	.	.	.	.	.	.
.	32E-/JJJ	.	.	32e-\JJJ	.	32g/JJJ	32b-JJJ 32e-/	.	.	.	.	.	.	.	.	.	.	.	.	.
.	32A-/LLL	4A-\	.	32a-\LLL	.	32a-/LLL	32a-/LLL	.	1A- 1AA-	-men.	.	1A-	.	.	1a-	-men.	.	8AA-\L	8a-\L	.
.	32A-/	.	.	32a-\	.	32a-/	32a-/	.	.	.	.	.	.	.	.	.	.	.	.	.
.	32A-/	.	.	32a-\	.	32a-/	32a-/	.	.	.	.	.	.	.	.	.	.	.	.	.
.	32A-/	.	.	32a-\	.	32a-/	32a-/	.	.	.	.	.	.	.	.	.	.	.	.	.
.	32A-/	.	.	32a-\	.	32a-/	32a-/	.	.	.	.	.	.	.	.	.	.	8C\	8cc\	.
.	32A-/	.	.	32a-\	.	32a-/	32a-/	.	.	.	.	.	.	.	.	.	.	.	.	.
.	32A-/	.	.	32a-\	.	32a-/	32a-/	.	.	.	.	.	.	.	.	.	.	.	.	.
.	32A-/	.	.	32a-\	.	32a-/	32a-/	.	.	.	.	.	.	.	.	.	.	.	.	.
.	32A-/	4rGG	.	32a-\	.	32a-/	32a-/	.	.	.	.	.	.	.	.	.	.	8E-\	8ee-\	.
.	32A-/	.	.	32a-\	.	32a-/	32a-/	.	.	.	.	.	.	.	.	.	.	.	.	.
.	32A-/	.	.	32a-\	.	32a-/	32a-/	.	.	.	.	.	.	.	.	.	.	.	.	.
.	32A-/	.	.	32a-\	.	32a-/	32a-/	.	.	.	.	.	.	.	.	.	.	.	.	.
.	32A-/	.	.	32a-\	.	32a-/	32a-/	.	.	.	.	.	.	.	.	.	.	8A-\J	8aa-\J	.
.	32A-/	.	.	32a-\	.	32a-/	32a-/	.	.	.	.	.	.	.	.	.	.	.	.	.
.	32A-/	.	.	32a-\	.	32a-/	32a-/	.	.	.	.	.	.	.	.	.	.	.	.	.
.	32A-/	.	.	32a-\	.	32a-/	32a-/	.	.	.	.	.	.	.	.	.	.	.	.	.
.	32A-/	2r	.	32a-\	.	32a-/	32a-/	.	.	.	.	.	.	.	.	.	.	8c\L	8ccc\L	.
.	32A-/	.	.	32a-\	.	32a-/	32a-/	.	.	.	.	.	.	.	.	.	.	.	.	.
.	32A-/	.	.	32a-\	.	32a-/	32a-/	.	.	.	.	.	.	.	.	.	.	.	.	.
.	32A-/	.	.	32a-\	.	32a-/	32a-/	.	.	.	.	.	.	.	.	.	.	.	.	.
.	32A-/	.	.	32a-\	.	32a-/	32a-/	.	.	.	.	.	.	.	.	.	.	8A-\	8aa-\	.
.	32A-/	.	.	32a-\	.	32a-/	32a-/	.	.	.	.	.	.	.	.	.	.	.	.	.
.	32A-/	.	.	32a-\	.	32a-/	32a-/	.	.	.	.	.	.	.	.	.	.	.	.	.
.	32A-/	.	.	32a-\	.	32a-/	32a-/	.	.	.	.	.	.	.	.	.	.	.	.	.
.	32A-/	.	.	32a-\	.	32a-/	32a-/	.	.	.	.	.	.	.	.	.	.	8E-\	8ee-\	.
.	32A-/	.	.	32a-\	.	32a-/	32a-/	.	.	.	.	.	.	.	.	.	.	.	.	.
.	32A-/	.	.	32a-\	.	32a-/	32a-/	.	.	.	.	.	.	.	.	.	.	.	.	.
.	32A-/	.	.	32a-\	.	32a-/	32a-/	.	.	.	.	.	.	.	.	.	.	.	.	.
.	32A-/	.	.	32a-\	.	32a-/	32a-/	.	.	.	.	.	.	.	.	.	.	8C\J	8cc\J	.
.	32A-/	.	.	32a-\	.	32a-/	32a-/	.	.	.	.	.	.	.	.	.	.	.	.	.
.	32A-/	.	.	32a-\	.	32a-/	32a-/	.	.	.	.	.	.	.	.	.	.	.	.	.
.	32A-/JJJ	.	.	32a-\JJJ	.	32a-/JJJ	32a-/JJJ	.	.	.	.	.	.	.	.	.	.	.	.	.
=27	=27	=27	=27	=27	=27	=27	=27	=27	=27	=27	=27	=27	=27	=27	=27	=27	=27	=27	=27	=27
0ryy	4A-/	4A-\	.	4a-\	.	4a-/	4a-/	.	1r	.	.	1r	.	.	1r	.	.	4AA-/	4a-/	.
.	4r	1.ryy	.	4r	.	4r	4r	.	.	.	.	.	.	.	.	.	.	4r	4r	.
.	2r	.	.	2r	.	2r	2r	.	.	.	.	.	.	.	.	.	.	2r	2r	.
.	4D-\	.	.	4d-\	.	4f/	4b-/	.	1r	.	.	1r	.	.	1r	.	.	4D- 4DD-/	4b- 4f/	.
.	4r	.	.	4r	.	4r	4r	.	.	.	.	.	.	.	.	.	.	4r	4r	.
.	2r	.	.	2r	.	2r	2r	.	.	.	.	.	.	.	.	.	.	2r	2r	.
.	.	4ryy	.	.	.	.	.	.	.	.	.	.	.	.	.	.	.	.	.	.
=28||	=28||	=28||	=28||	=28||	=28||	=28||	=28||	=28||	=28||	=28||	=28||	=28||	=28||	=28||	=28||	=28||	=28||	=28||	=28||	=28||
0ryy	4C/	0ryy	.	4c\	.	4en/	4cc\	.	1r	.	.	1r	.	.	1r	.	.	4C 4CC/	4cc 4g 4en/	.
.	4r	.	.	4r	.	4r	4r	.	.	.	.	.	.	.	.	.	.	4r	4r	.
.	4C/	.	.	4cc 4en 4G\	.	4een 4cc 4g 4c/	4ccc 4een 4g\	.	.	.	.	.	.	.	.	.	.	4c 4G 4En 4C\	4ccc 4gg 4een 4cc\	.
.	4r	.	.	4r	.	4r	4r	.	.	.	.	.	.	.	.	.	.	4r	4r	.
!	!	!	!	!	!	!	!	!	!	!	!	!	!	!	!	!	!	!	!LO:TX:t=[segno]	!
!	!	!	!	!	!	!	!	!	!	!	!	!	!	!	!	!	!	!	!LO:TX:a:t=P:problem=znak segno	!
.	1r	.	.	1r	.	1r	1r	.	1r	.	.	1r	.	.	1r	.	.	1r	1r	.
*	*v	*v	*	*	*	*	*	*	*	*	*	*	*	*	*	*	*	*	*	*
==	==	==	==	==	==	==	==	==	==	==	==	==	==	==	==	==	==	==	==
*-	*-	*-	*-	*-	*-	*-	*-	*-	*-	*-	*-	*-	*-	*-	*-	*-	*-	*-	*-
!!!system-decoration: [({p1}{s3,s4,s5}{s6,s7}s8{s9,s10})]
!!!RDF**kern: > = above
!!!RDF**kern: < = below
!!!EED: Antoni Szymański
!!!EEV: 2021-08-10
!!!ENC: Tomasz Grochalski
!!!END: 2021-07-29
